!!!!SEGMENT: pl-kk--kk-i-15--023_anonim--mittit-ad-virginem.krn
!!!id: 16xx:1140
!!!COM: Anonim
!!!COM-rism: pe30004985
!!!CDT:
!!!CNT:
!!!OTL: Mittit ad virginem
!!!PDT:
!!!SMS-siglum: PL-Kk
!!!SMS-shelfmark: Kk.I.15
!!!NIFC-rismID: 1001147865
!!!URL-scan: http://repozytorium.nifc.pl/skany/pl-kk-nut--i-15
!!!ONB-nifc: UWAGA: C (skan 0014-0015), A (skan 0031-0032), T (skan 0049-0050), B (skan 0066-0067). Następny utwór: Ave Maria (bez tekstu i niekompletny)
!!!SMS-variant:
!!!SMS-altvar:
**kern	**text	**text	**text	**kern	**text	**text	**kern	**text	**text	**kern	**text	**text
*part4	*part4	*part4	*part4	*part3	*part3	*part3	*part2	*part2	*part2	*part1	*part1	*part1
*staff4	*staff4	*staff4	*staff4	*staff3	*staff3	*staff3	*staff2	*staff2	*staff2	*staff1	*staff1	*staff1
*I"Baſso	*	*	*	*I"Tenore.	*	*	*I"Alto	*	*	*I"Canto.	*	*
*I'B	*	*	*	*I'T	*	*	*I'A	*	*	*I'S	*	*
*clefF4	*	*	*	*clefC4	*	*	*clefC4	*	*	*clefC3	*	*
*k[b-]	*	*	*	*k[b-]	*	*	*k[b-]	*	*	*k[b-]	*	*
*F:	*	*	*	*F:	*	*	*F:	*	*	*F:	*	*
*M2/1	*	*	*	*M2/1	*	*	*M2/1	*	*	*M2/1	*	*
*met(C)	*	*	*	*met(C)	*	*	*met(C)	*	*	*met(C)	*	*
=	=	=	=	=	=	=	=	=	=	=	=	=
!	!	!	!	!LO:TX:b:t=P:problem:Inicjał "M" przed kluczem	!	!	!	!	!	!	!	!
1rD	.	.	.	1C	Mit-	.	00r	.	.	0r	.	.
!LO:TX:b:t=P:problem:Inicjał "M" przed kluczem	!	!	!	!	!	!	!	!	!	!	!	!
1FF	Mit-	.	.	1F	-tit	.	.	.	.	.	.	.
=1-	=1-	=1-	=1-	=1-	=1-	=1-	=1-	=1-	=1-	=1-	=1-	=1-
1BB-	-tit	.	.	1F	ad	.	.	.	.	1r	.	.
!	!	!	!	!	!	!	!	!	!	!LO:TX:b:t=P:problem:Inicjał "M" przed kluczem	!	!
1BB-	ad	.	.	1G	Vir-	.	.	.	.	1G	Mit-	.
=2-	=2-	=2-	=2-	=2-	=2-	=2-	=2-	=2-	=2-	=2-	=2-	=2-
!	!	!	!	!	!	!	!LO:TX:b:t=P:problem:Inicjał "M" przed kluczem	!	!	!	!	!
1C	Vir-	.	.	1E	-gi-	.	1C	Mit-	.	1c	-tit	.
1AA	-gi-	.	.	1F	-ne(m)	.	1F	-tit	.	1c	ad	.
=3-	=3-	=3-	=3-	=3-	=3-	=3-	=3-	=3-	=3-	=3-	=3-	=3-
!	!	!	!	!	!	!	!LO:TX:t=P:problem:kreska pseudotaktowa	!	!	!	!	!
1BB-	-ne(m)	.	.	1rA	.	.	1F	ad	.	1d	Vir-	.
0r	.	.	.	0G	non	.	1G	Vir-	.	1B-	-gi-	.
=4-	=4-	=4-	=4-	=4-	=4-	=4-	=4-	=4-	=4-	=4-	=4-	=4-
.	.	.	.	.	.	.	1E	-gi-	.	0c	-nem	.
*	*ij	*	*	*	*	*	*	*	*	*	*	*
1FF	Mit-	.	.	1A	quem	.	0F	-ne(m)	.	.	.	.
=5-	=5-	=5-	=5-	=5-	=5-	=5-	=5-	=5-	=5-	=5-	=5-	=5-
1BB-	-tit	.	.	1.B-	uis	.	.	.	.	1r	.	.
1BB-	ad	.	.	.	.	.	2B-\	non	.	1d	non	.
.	.	.	.	2A/	.	.	2A\	.	.	.	.	.
=6-	=6-	=6-	=6-	=6-	=6-	=6-	=6-	=6-	=6-	=6-	=6-	=6-
1C	Vir-	.	.	1G	.	.	1G	quem	.	1e	quem	.
!	!	!	!	!	!	!	!LO:TX:a:t=P:problem:rozdzielacz słów:global	!	!	!	!	!
0AA	-gi-	.	.	1F	.	.	1F,<	vis	.	1f	uis	.
=7-	=7-	=7-	=7-	=7-	=7-	=7-	=7-	=7-	=7-	=7-	=7-	=7-
.	.	.	.	2A/	a-	.	2A/	An-	.	1e	An-	.
.	.	.	.	1c	.	.	1c	-ge-	.	.	.	.
1BB-	-ne(m)	.	.	.	.	.	.	.	.	1d	-ge-	.
*	*Xij	*	*	*	*	*	*	*	*	*	*	*
.	.	.	.	2B-\	.	.	2B-\	.	.	.	.	.
=8-	=8-	=8-	=8-	=8-	=8-	=8-	=8-	=8-	=8-	=8-	=8-	=8-
1C	non	.	.	2A/	.	.	2A/	.	.	1c	-lu(m)	.
.	.	.	.	2G/	-ge-	.	2G/	.	.	.	.	.
!	!	!	!	!	!	!	!LO:TX:t=P:problem:kreska pseudotaktowa	!	!	!	!	!
1D	que(m)	.	.	1F	-lu(m)	.	1F	-lu(m)	.	2r	.	.
.	.	.	.	.	.	.	.	.	.	2e\	ſed	.
=9-	=9-	=9-	=9-	=9-	=9-	=9-	=9-	=9-	=9-	=9-	=9-	=9-
1E-X	Vis	.	.	2rG	.	.	1G	non	.	1g	for-	.
*	*	*	*	*	*ij	*	*	*	*	*	*	*
.	.	.	.	2G/	a-	.	.	.	.	.	.	.
*	*	*	*	*lig	*	*	*	*	*	*	*	*
1D	an-	.	.	1D	-ge-	.	0A	que(m)	.	1f	-ti-	.
=10-	=10-	=10-	=10-	=10-	=10-	=10-	=10-	=10-	=10-	=10-	=10-	=10-
1C	-ge-	.	.	1E	.	.	.	.	.	1e	-tu-	.
*	*	*	*	*Xlig	*	*	*	*	*	*	*	*
!	!	!	!	!LO:LB:g=original	!	!	!	!	!	!	!	!
1BB-	-lu(m)	.	.	0F	-lu(m)	.	1B-	uis	.	0d	-di-	.
*	*	*	*	*	*Xij	*	*	*	*	*	*	*
!LO:LB:g=original	!	!	!	!	!	!	!	!	!	!	!	!
=11-	=11-	=11-	=11-	=11-	=11-	=11-	=11-	=11-	=11-	=11-	=11-	=11-
1D	ſed	.	.	.	.	.	0A	an-	.	.	.	.
!	!	!	!	!	!	!	!	!	!	!LO:LB:g=original	!	!
1F	for-	.	.	1r	.	.	.	.	.	1c	-nem	.
=12-	=12-	=12-	=12-	=12-	=12-	=12-	=12-	=12-	=12-	=12-	=12-	=12-
1Eny	-ti-	.	.	2r	.	.	1G	-ge-	.	1rc	.	.
.	.	.	.	2c\	ſed	.	.	.	.	.	.	.
*	*	*	*	*	*	*	*	*	*	*lig	*	*
1D	-tu-	.	.	1d	for-	.	1F	-lu(m)	.	1B-	ſu-	.
!	!	!	!	!	!	!	!LO:LB:g=original	!	!	!	!	!
=13-	=13-	=13-	=13-	=13-	=13-	=13-	=13-	=13-	=13-	=13-	=13-	=13-
1C	-di-	.	.	1e	-ti-	.	0r	.	.	1c	-u(m)	.
*	*	*	*	*	*	*	*	*	*	*Xlig	*	*
1BB-	-nem	.	.	1.f	-tu-	.	.	.	.	1d	Ar-	.
=14-	=14-	=14-	=14-	=14-	=14-	=14-	=14-	=14-	=14-	=14-	=14-	=14-
0AA	ſu-	.	.	.	.	.	1A	ſed	.	2.A/	-chan-	.
.	.	.	.	4e\	.	.	.	.	.	.	.	.
.	.	.	.	4d\	.	.	.	.	.	4B-/	.	.
.	.	.	.	2e\	.	.	1c	for-	.	1A	-ge-	.
.	.	.	.	2c\	.	.	.	.	.	.	.	.
=15-	=15-	=15-	=15-	=15-	=15-	=15-	=15-	=15-	=15-	=15-	=15-	=15-
1BB-	-am	.	.	1d	-di-	.	1B-	-ti-	.	2G/	-lum	.
.	.	.	.	.	.	.	.	.	.	1d	a-	.
1C	ar-	.	.	2G/	-ne(m)	.	1A	-tu-	.	.	.	.
.	.	.	.	1c\	for-	.	.	.	.	2c/	-ma-	.
=16-	=16-	=16-	=16-	=16-	=16-	=16-	=16-	=16-	=16-	=16-	=16-	=16-
1GG	-chan-	.	.	.	.	.	1G	-di-	.	2d\	.	.
.	.	.	.	2B-\	-ti-	.	.	.	.	2e\	.	.
1AA	-ge-	.	.	2A/	-tu-	.	1F	-nem.	.	2c/	-tor	.
.	.	.	.	2F/	.	.	.	.	.	1c\	ho-	.
=17-	=17-	=17-	=17-	=17-	=17-	=17-	=17-	=17-	=17-	=17-	=17-	=17-
*	*	*	*	*	*	*	*lig	*	*	*	*	*
1GG	-lu(m)	.	.	1G	.	.	1E	ſu-	.	.	.	.
.	.	.	.	.	.	.	.	.	.	2B-/	.	.
1FF	.	.	.	2C/	.	.	1F	.	.	2.A/	.	.
.	.	.	.	1F/	.	.	.	.	.	.	.	.
.	.	.	.	.	.	.	.	.	.	4B-/	.	.
*	*	*	*	*	*	*	*Xlig	*	*	*	*	*
=18-	=18-	=18-	=18-	=18-	=18-	=18-	=18-	=18-	=18-	=18-	=18-	=18-
1C	a-	.	.	.	.	.	1G	-um	.	2.c/	.	.
.	.	.	.	2E/	-di-	.	.	.	.	.	.	.
.	.	.	.	.	.	.	.	.	.	4e\	.	.
*lig	*	*	*	*	*	*	*	*	*	*	*	*
1BB-	-ma-	.	.	1F	-ne(m)	.	1D	ar-	.	1d	-mi-	.
=19-	=19-	=19-	=19-	=19-	=19-	=19-	=19-	=19-	=19-	=19-	=19-	=19-
1C	.	.	.	1c	ſu-	.	1E	-chan-	.	1c	-nis	.
*Xlig	*	*	*	*	*	*	*	*	*	*	*	*
1D	.	.	.	2A/	.	.	0D	-ge-	.	0r	.	.
.	.	.	.	2.B-\	-um	.	.	.	.	.	.	.
=20-	=20-	=20-	=20-	=20-	=20-	=20-	=20-	=20-	=20-	=20-	=20-	=20-
2BB-/	-tor	.	.	.	.	.	.	.	.	.	.	.
.	.	.	.	4A\	.	.	.	.	.	.	.	.
1BB-	ho-	.	.	2F/	ar-	.	.	.	.	.	.	.
.	.	.	.	2G/	-chan-	.	1C	-lu(m)	.	1r	.	.
2AA/	.	.	.	2A/	-ge-	.	.	.	.	.	.	.
=21-	=21-	=21-	=21-	=21-	=21-	=21-	=21-	=21-	=21-	=21-	=21-	=21-
1GG	.	.	.	1B-	-li-	.	1G	a-	.	1G	For-	.
1AA	-mi-	.	.	1A	-u(m)	.	0F	-ma-	.	2c/	-tem	.
.	.	.	.	.	.	.	.	.	.	2c/	ex-	.
=22-	=22-	=22-	=22-	=22-	=22-	=22-	=22-	=22-	=22-	=22-	=22-	=22-
1BB-	-nis	.	.	2F/	a-	.	.	.	.	1d	-pe-	.
!	!	!	!	!LO:LB:g=original	!	!	!	!	!	!	!	!
.	.	.	.	2.B-\	-ma-	.	.	.	.	.	.	.
*	*	*	*	*	*	*	*lig	*	*	*	*	*
1rC	.	.	.	.	.	.	1G	.	.	1B-	-di-	.
.	.	.	.	4A/	.	.	.	.	.	.	.	.
.	.	.	.	2G/	.	.	.	.	.	.	.	.
!LO:PB:g=original	!	!	!	!	!	!	!	!	!	!	!	!
=23-	=23-	=23-	=23-	=23-	=23-	=23-	=23-	=23-	=23-	=23-	=23-	=23-
2.FF/	ho-	.	.	4F/	.	.	1A	.	.	1c	-at	.
.	.	.	.	4G/	.	.	.	.	.	.	.	.
.	.	.	.	4A/	.	.	.	.	.	.	.	.
4GG/	.	.	.	4B-/	.	.	.	.	.	.	.	.
!	!	!	!	!	!	!	!	!	!	!LO:LB:g=original	!	!
*	*	*	*	*	*	*	*Xlig	*	*	*	*	*
2AA/	.	.	.	2c\	-tor	.	1F	-tor	.	1r	.	.
2.BB-/	.	.	.	2.d\	ho-	.	.	.	.	.	.	.
=24-	=24-	=24-	=24-	=24-	=24-	=24-	=24-	=24-	=24-	=24-	=24-	=24-
*	*	*	*	*	*	*	*lig	*	*	*	*	*
.	.	.	.	.	.	.	1F	ho-	.	1d	pro	.
4C/	.	.	.	4c\	.	.	.	.	.	.	.	.
1D	.	.	.	4A\	.	.	.	.	.	.	.	.
.	.	.	.	4B-\	.	.	.	.	.	.	.	.
.	.	.	.	1c	.	.	1E	.	.	1e	no-	.
2C/	.	.	.	.	.	.	.	.	.	.	.	.
*	*	*	*	*	*	*	*Xlig	*	*	*	*	*
=25-	=25-	=25-	=25-	=25-	=25-	=25-	=25-	=25-	=25-	=25-	=25-	=25-
*	*	*	*	*lig	*	*	*	*	*	*	*	*
2D/	.	.	.	1F	-mi-	.	1D	.	.	1f	-bis	.
2D/	-mi-	.	.	.	.	.	.	.	.	.	.	.
1C	-nis	.	.	1G	.	.	1E	-mi-	.	1e	nun-	.
*	*	*	*	*Xlig	*	*	*	*	*	*	*	*
=26-	=26-	=26-	=26-	=26-	=26-	=26-	=26-	=26-	=26-	=26-	=26-	=26-
1rC	.	.	.	1.F	-nis	.	0F	-nis	.	2d/	.	.
.	.	.	.	.	.	.	.	.	.	2.c/	.	.
1FF	For-	.	.	.	.	.	.	.	.	.	.	.
.	.	.	.	.	.	.	.	.	.	4B-/	.	.
!	!	!	!	!LO:TX:a:t=P:problem:rozdzielacz słów:global	!	!	!	!	!	!	!	!
.	.	.	.	2.f,<\	For-	.	.	.	.	4A/	-ti-	.
.	.	.	.	.	.	.	.	.	.	4G/	.	.
=27-	=27-	=27-	=27-	=27-	=27-	=27-	=27-	=27-	=27-	=27-	=27-	=27-
1BB-	-tem	.	.	.	.	.	0rA	.	.	2F/	-um	.
.	.	.	.	4e\	.	.	.	.	.	.	.	.
.	.	.	.	4d\	.	.	.	.	.	2.f\	na-	.
.	.	.	.	4c\	.	.	.	.	.	.	.	.
1BB-	ex-	.	.	2.B-\	.	.	.	.	.	.	.	.
.	.	.	.	.	.	.	.	.	.	4e\	.	.
.	.	.	.	.	.	.	.	.	.	2d\	-tu-	.
.	.	.	.	4A/	.	.	.	.	.	.	.	.
=28-	=28-	=28-	=28-	=28-	=28-	=28-	=28-	=28-	=28-	=28-	=28-	=28-
1C	-pe-	.	.	4G/	.	.	1C	For-	.	2c/	.	.
.	.	.	.	4F/	.	.	.	.	.	.	.	.
.	.	.	.	2E/	-tem	.	.	.	.	1.c	-rae	.
!	!	!	!	!	!	!	!LO:LB:g=original	!	!	!	!	!
1AA	-di-	.	.	2.A/	ex-	.	1F	-tem	.	.	.	.
.	.	.	.	4G/	.	.	.	.	.	.	.	.
=29-	=29-	=29-	=29-	=29-	=29-	=29-	=29-	=29-	=29-	=29-	=29-	=29-
!LO:TX:t=P:problem:obie nuty zmazane, dopisane oktawę wyżej nad pięciolinią	!	!	!	!	!	!	!	!	!	!	!	!
1BB-	-at	.	.	4F/	.	.	1F	ex-	.	2.f\	fa-	.
.	.	.	.	4E/	.	.	.	.	.	.	.	.
.	.	.	.	1D	.	.	.	.	.	.	.	.
.	.	.	.	.	.	.	.	.	.	4e\	.	.
1BB-	pro	.	.	.	.	.	1G	-pe-	.	4d\	.	.
.	.	.	.	.	.	.	.	.	.	4c\	.	.
.	.	.	.	1d\	.	.	.	.	.	4B-/	.	.
.	.	.	.	.	.	.	.	.	.	4A/	.	.
=30-	=30-	=30-	=30-	=30-	=30-	=30-	=30-	=30-	=30-	=30-	=30-	=30-
1C	no-	.	.	.	.	.	1E	-di-	.	1G	-ci-	.
.	.	.	.	4c\	.	.	.	.	.	.	.	.
.	.	.	.	4B-\	.	.	.	.	.	.	.	.
1D	-bis	.	.	2A/	.	.	1F,<	-at	.	1F	-at	.
.	.	.	.	2d\	.	.	.	.	.	.	.	.
=31-	=31-	=31-	=31-	=31-	=31-	=31-	=31-	=31-	=31-	=31-	=31-	=31-
2.E\	nun-	.	.	2c\	.	.	1G	pro	.	1rc	.	.
.	.	.	.	2B-\	-pe-	.	.	.	.	.	.	.
4D\	.	.	.	.	.	.	.	.	.	.	.	.
1C	-ti-	.	.	1c	-di-	.	1A	no-	.	2rB	.	.
.	.	.	.	.	.	.	.	.	.	2c/	ut	.
=32-	=32-	=32-	=32-	=32-	=32-	=32-	=32-	=32-	=32-	=32-	=32-	=32-
1BB-	-u(m)	.	.	1F	-at	.	1.B-	-bis	.	1.d	prae-	.
!	!	!	!	!LO:LB:g=original	!	!	!	!	!	!	!	!
2D/	na-	.	.	1rA	.	.	.	.	.	.	.	.
(1F\	-tu-	.	.	.	.	.	2A/	nun-	.	2c/	.	.
=33-	=33-	=33-	=33-	=33-	=33-	=33-	=33-	=33-	=33-	=33-	=33-	=33-
.	.	.	.	1G	pro	.	1G	-ti-	.	2d\	.	.
2E\)	.	.	.	.	.	.	.	.	.	2e\	.	.
1D	-rae	.	.	2A/	no-	.	1F,<	-u(m)	.	1.f	-iu-	.
.	.	.	.	2.F/	.	.	.	.	.	.	.	.
=34-	=34-	=34-	=34-	=34-	=34-	=34-	=34-	=34-	=34-	=34-	=34-	=34-
!LO:SIC:v:t=custos CC	!	!	!	!	!	!	!	!	!	!	!	!
2D/	fa-	.	.	.	.	.	1A	Na-	.	.	.	.
.	.	.	.	4G/	.	.	.	.	.	.	.	.
!LO:LB:g=original	!	!	!	!	!	!	!	!	!	!	!	!
4C/	-ci-	.	.	2.A/	-biſ	.	.	.	.	4e\	.	.
4BB-/	.	.	.	.	.	.	.	.	.	4d\	.	.
!	!	!	!	!	!	!	!	!	!	!LO:LB:g=original	!	!
1AA	-at	.	.	.	.	.	1c	-tu-	.	2.e\	.	.
.	.	.	.	8G/L	.	.	.	.	.	.	.	.
.	.	.	.	8F/J	.	.	.	.	.	.	.	.
.	.	.	.	1F/	nun-	.	.	.	.	.	.	.
.	.	.	.	.	.	.	.	.	.	4f\	.	.
=35-	=35-	=35-	=35-	=35-	=35-	=35-	=35-	=35-	=35-	=35-	=35-	=35-
1BB-	ut	.	.	.	.	.	1B-	-rae	.	1d	.	.
.	.	.	.	4E/	-ti-	.	.	.	.	.	.	.
.	.	.	.	4D/	.	.	.	.	.	.	.	.
2C/	prae-	.	.	2E/	-u(m)	.	1A	fa-	.	2c/	.	.
2D/	-ju-	.	.	2F/	.	.	.	.	.	1f\	-di-	.
=36-	=36-	=36-	=36-	=36-	=36-	=36-	=36-	=36-	=36-	=36-	=36-	=36-
2GG/	-di-	.	.	1G	.	.	1G	-ci-	.	.	.	.
2C/	.	.	.	.	.	.	.	.	.	2e\	-ci-	.
2AA/	.	.	.	2A/	.	.	1F	-at	.	1f	-u(m)	.
2BB-/	.	.	.	2F/	na-	.	.	.	.	.	.	.
=37-	=37-	=37-	=37-	=37-	=37-	=37-	=37-	=37-	=37-	=37-	=37-	=37-
*	*	*	*	*	*	*	*lig	*	*	*	*	*
1GG	-ci-	.	.	1G	-tu-	.	1E	ut	.	1rg	.	.
1FF	-um	.	.	2A/	-rae	.	1F	.	.	2rf	.	.
.	.	.	.	2.c\	fa-	.	.	.	.	1f\	in	.
*	*	*	*	*	*	*	*Xlig	*	*	*	*	*
=38-	=38-	=38-	=38-	=38-	=38-	=38-	=38-	=38-	=38-	=38-	=38-	=38-
1C	in	.	.	.	.	.	1G	prae-	.	.	.	.
.	.	.	.	4B-\	.	.	.	.	.	.	.	.
.	.	.	.	2G/	.	.	.	.	.	2e\	.	.
*lig	*	*	*	*	*	*	*	*	*	*	*	*
1BB-	par-	.	.	2.B-\	.	.	1D	-iu-	.	1d	.	.
.	.	.	.	4A\	-ci-	.	.	.	.	.	.	.
=39-	=39-	=39-	=39-	=39-	=39-	=39-	=39-	=39-	=39-	=39-	=39-	=39-
1C	.	.	.	1G	-at	.	1E	-di-	.	1c	.	.
*Xlig	*	*	*	*	*	*	*	*	*	*	*	*
2D/	.	.	.	2.F/	ut	.	1D	-ci-	.	2A/	par-	.
1BB-/	.	.	.	.	.	.	.	.	.	2B-/	.	.
.	.	.	.	4D/	.	.	.	.	.	.	.	.
!	!	!	!	!	!	!	!LO:LB:g=original	!	!	!	!	!
=40-	=40-	=40-	=40-	=40-	=40-	=40-	=40-	=40-	=40-	=40-	=40-	=40-
.	.	.	.	2E/	prae-	.	1C	-um	.	1c	.	.
2AA/	.	.	.	2F/	.	.	.	.	.	.	.	.
2.GG/	.	.	.	1D	-iu-	.	1G	in	.	2.B-/	.	.
4AA/	.	.	.	.	.	.	.	.	.	4c/	.	.
=41-	=41-	=41-	=41-	=41-	=41-	=41-	=41-	=41-	=41-	=41-	=41-	=41-
2.BB-/	.	.	.	2D/	-di-	.	1F	par-	.	1d	.	.
.	.	.	.	1BB-	.	.	.	.	.	.	.	.
4AA/	.	.	.	.	.	.	.	.	.	.	.	.
2GG/	.	.	.	.	.	.	2G/	.	.	2e\	.	.
1FF/	-tu	.	.	2C/	-ci-	.	1A\	.	.	2.f\	.	.
=42-	=42-	=42-	=42-	=42-	=42-	=42-	=42-	=42-	=42-	=42-	=42-	=42-
.	.	.	.	4D/	-um	.	.	.	.	.	.	.
.	.	.	.	4E/	.	.	.	.	.	4e\	.	.
!	!	!	!	!LO:LB:g=original	!	!	!	!	!	!	!	!
2.F\	Vir-	.	.	4F/	.	.	2F/	.	.	2c/	.	.
.	.	.	.	4G/	.	.	.	.	.	.	.	.
*	*	*	*	*	*	*	*lig	*	*	*	*	*
.	.	.	.	2A/	.	.	1G	.	.	1d	.	.
4E\	.	.	.	.	.	.	.	.	.	.	.	.
2D/	.	.	.	2B-/	in	.	.	.	.	.	.	.
=43-	=43-	=43-	=43-	=43-	=43-	=43-	=43-	=43-	=43-	=43-	=43-	=43-
1C	.	.	.	1c	par-	.	1E	.	.	1e	-tu	.
*	*	*	*	*	*	*	*Xlig	*	*	*	*	*
2D/	.	.	.	2A/	-tu	.	2D/	-tu	.	2f\	Vir-	.
*	*	*	*	*	*	*	*lig	*	*	*	*	*
2BB-/	.	.	.	2B-/	.	.	1G/	Vir-	.	2d\	.	.
=44-	=44-	=44-	=44-	=44-	=44-	=44-	=44-	=44-	=44-	=44-	=44-	=44-
2C/	.	.	.	2G/	Vir-	.	.	.	.	2e\	.	.
2AA/	.	.	.	2A/	.	.	1F	.	.	2f\	.	.
!LO:LB:g=original	!	!	!	!	!	!	!	!	!	!	!	!
1GG	.	.	.	1B-	.	.	.	.	.	1g	.	.
*	*	*	*	*	*	*	*Xlig	*	*	*	*	*
.	.	.	.	.	.	.	2E/	.	.	.	.	.
!	!	!	!	!	!	!	!	!	!	!LO:LB:g=original	!	!
=45-	=45-	=45-	=45-	=45-	=45-	=45-	=45-	=45-	=45-	=45-	=45-	=45-
*lig	*	*	*	*	*	*	*	*	*	*	*	*
1FF	-gi-	.	.	2A/	.	.	2F/	.	.	2c/	.	.
.	.	.	.	2.c/	.	.	2A/	.	.	1f	-gi-	.
1C	.	.	.	.	.	.	1G	-gi-	.	.	.	.
.	.	.	.	4B-\	.	.	.	.	.	.	.	.
.	.	.	.	2c\	-gi-	.	.	.	.	2e\	.	.
*Xlig	*	*	*	*	*	*	*	*	*	*	*	*
=46-	=46-	=46-	=46-	=46-	=46-	=46-	=46-	=46-	=46-	=46-	=46-	=46-
0FFl;; 0F	-nis	.	.	0Al;;	-nis	.	0Fl;;	-nis	.	0fl;;	-nis	.
=47||	=47||	=47||	=47||	=47||	=47||	=47||	=47||	=47||	=47||	=47||	=47||	=47||
*M2/1	*	*	*	*M2/1	*	*	*M2/1	*	*	*M2/1	*	*
*met(C)	*	*	*	*met(C)	*	*	*met(C)	*	*	*met(C)	*	*
!LO:TX:b:t=P:problem:Inicjał "N" przed metrum	!	!	!	!	!	!	!LO:TX:b:t=P:problem:Inicjał "N" przed metrum	!	!	!	!	!
1D	Na-	.	.	1rA	.	.	1D	Na-	.	1rc	.	.
!	!	!	!	!LO:TX:b:t=P:problem:Inicjał "N" przed metrum	!	!	!	!	!	!LO:TX:b:t=P:problem:Inicjał "N" przed metrum	!	!
1F	-tu-	.	.	1A	Na-	.	1F	-tu-	.	1A	Na-	.
=48-	=48-	=48-	=48-	=48-	=48-	=48-	=48-	=48-	=48-	=48-	=48-	=48-
1F	-ram	.	.	1c	-tu-	.	1F	-ra(m)	.	1c	-tu-	.
1E	ſu-	.	.	1c	-ra(m)	.	1E	ſu-	.	1c	-ram	.
=49-	=49-	=49-	=49-	=49-	=49-	=49-	=49-	=49-	=49-	=49-	=49-	=49-
1D	-pe-	.	.	1B-	ſu-	.	1D	-pe-	.	1B-	ſu-	.
2C/	-rat	.	.	1A	-pe-	.	2C/	-rat	.	1A	-pe-	.
2AA/	.	.	.	.	.	.	2rD	.	.	.	.	.
=50-	=50-	=50-	=50-	=50-	=50-	=50-	=50-	=50-	=50-	=50-	=50-	=50-
2BB-/	.	.	.	2G/	-rat	.	0rA	.	.	2G/	-rat	.
2.D/	.	.	.	2.B-/	na-	.	.	.	.	2.B-/	na-	.
4C/	.	.	.	4A\	.	.	.	.	.	4A/	.	.
4BB-/	.	.	.	1A\	.	.	.	.	.	1A/	-t(us)	.
4AA/	.	.	.	.	.	.	.	.	.	.	.	.
=51-	=51-	=51-	=51-	=51-	=51-	=51-	=51-	=51-	=51-	=51-	=51-	=51-
1BB-	.	.	.	.	.	.	1rA	.	.	.	.	.
.	.	.	.	2G/	.	.	.	.	.	2G/	.	.
!	!	!	!	!LO:LB:g=original	!	!	!LO:LB:g=original	!	!	!	!	!
0AA	.	.	.	1A	-t(us)	.	1A	Na-	.	1A	Rex	.
=52-	=52-	=52-	=52-	=52-	=52-	=52-	=52-	=52-	=52-	=52-	=52-	=52-
*	*	*	*	*	*	*	*	*	*	*	*ij	*
.	.	.	.	2A/	Rex	.	1c	-tu-	.	1e	Na-	.
.	.	.	.	4G/	.	.	.	.	.	.	.	.
.	.	.	.	4F/	.	.	.	.	.	.	.	.
0r	.	.	.	2E/	.	.	1c	-ra(m)	.	1g	-tu-	.
.	.	.	.	2C/	.	.	.	.	.	.	.	.
=53-	=53-	=53-	=53-	=53-	=53-	=53-	=53-	=53-	=53-	=53-	=53-	=53-
.	.	.	.	2.G/	na-	.	1B-	ſu-	.	1g	-ram	.
.	.	.	.	4F/	.	.	.	.	.	.	.	.
1r	.	.	.	2D/	.	.	1A	-pe-	.	1f	ſu-	.
.	.	.	.	2F/	.	.	.	.	.	.	.	.
=54-	=54-	=54-	=54-	=54-	=54-	=54-	=54-	=54-	=54-	=54-	=54-	=54-
*lig	*	*	*	*	*	*	*	*	*	*	*	*
1C	na-	.	.	2C/	.	.	1G	-rat	.	0e	-pe-	.
.	.	.	.	2.c\	.	.	.	.	.	.	.	.
1AA	.	.	.	.	.	.	1A	na-	.	.	.	.
.	.	.	.	4B-\	.	.	.	.	.	.	.	.
.	.	.	.	2c\	.	.	.	.	.	.	.	.
*Xlig	*	*	*	*	*	*	*	*	*	*	*	*
=55-	=55-	=55-	=55-	=55-	=55-	=55-	=55-	=55-	=55-	=55-	=55-	=55-
2.BB-/	.	.	.	2.B-\	.	.	1F	-t(us)	.	0d	-rat	.
4AA/	.	.	.	4c\	.	.	.	.	.	.	.	.
2GG/	-t(us)	.	.	2d\	-t(us)	.	1B-	Rex	.	.	.	.
1G\	Rex	.	.	2G/	rex	.	.	.	.	.	.	.
=56-	=56-	=56-	=56-	=56-	=56-	=56-	=56-	=56-	=56-	=56-	=56-	=56-
.	.	.	.	2A/	.	.	1A	glo-	.	0e	na-	.
2F\	.	.	.	2.c\	glo-	.	.	.	.	.	.	.
2E/	.	.	.	.	.	.	1G	-ri-	.	.	.	.
.	.	.	.	4d\	.	.	.	.	.	.	.	.
2C/	.	.	.	2e\	.	.	.	.	.	.	.	.
!LO:LB:g=original	!	!	!	!	!	!	!	!	!	!	!	!
=57-	=57-	=57-	=57-	=57-	=57-	=57-	=57-	=57-	=57-	=57-	=57-	=57-
0.F	glo-	.	.	2.f\	.	.	1A,<	-ae	.	1c	-t(us)	.
*	*	*	*	*	*	*	*	*	*	*	*Xij	*
.	.	.	.	4e\	.	.	.	.	.	.	.	.
!	!	!	!	!	!	!	!	!	!	!LO:LB:g=original	!	!
.	.	.	.	2d\	.	.	1A	re-	.	0f	Rex	.
.	.	.	.	2.c\	.	.	.	.	.	.	.	.
=58-	=58-	=58-	=58-	=58-	=58-	=58-	=58-	=58-	=58-	=58-	=58-	=58-
.	.	.	.	.	.	.	1c	-gnat	.	.	.	.
.	.	.	.	4B-\	.	.	.	.	.	.	.	.
.	.	.	.	2A/	-ri-	.	.	.	.	.	.	.
2.C/	.	.	.	2G/	-ae	.	1c	et	.	1e	glo-	.
.	.	.	.	1g\	re-	.	.	.	.	.	.	.
4C/	-ri-	.	.	.	.	.	.	.	.	.	.	.
=59-	=59-	=59-	=59-	=59-	=59-	=59-	=59-	=59-	=59-	=59-	=59-	=59-
1G	-ae	.	.	.	.	.	1B-	im-	.	1d	-ri-	.
.	.	.	.	2g\	-gnat	.	.	.	.	.	.	.
!	!	!	!	!	!	!	!	!	!	!LO:TX:a:t=P:problem:rozdzielacz słów	!	!
1r	.	.	.	2e\	re-	.	1A	-pe-	.	1e,<	-ae	.
.	.	.	.	2c\	-gnat	.	.	.	.	.	.	.
!	!	!	!	!LO:PB:g=original	!	!	!	!	!	!	!	!
=60-	=60-	=60-	=60-	=60-	=60-	=60-	=60-	=60-	=60-	=60-	=60-	=60-
2r	.	.	.	1.g	et	.	1G	-rat	.	1e	re-	.
2.C/	re-	.	.	.	.	.	.	.	.	.	.	.
.	.	.	.	.	.	.	0rG	.	.	1g	-gnat	.
4D\	.	.	.	.	.	.	.	.	.	.	.	.
4E\	.	.	.	4f\	.	.	.	.	.	.	.	.
4F\	.	.	.	4e\	.	.	.	.	.	.	.	.
=61-	=61-	=61-	=61-	=61-	=61-	=61-	=61-	=61-	=61-	=61-	=61-	=61-
!	!	!	!	!	!	!	!	!	!	!LO:TX:t=P:problem:nad nutą ſ lub minima kursywą? znaczenie niejasne	!	!
2G\	.	.	.	2d\	.	.	.	.	.	1g	et	.
2E\	-gnat	.	.	2e\	.	.	.	.	.	.	.	.
2F\	et	.	.	2c/	im-	.	0A	et	.	1f	im-	.
1D\	im-	.	.	2d\	.	.	.	.	.	.	.	.
=62-	=62-	=62-	=62-	=62-	=62-	=62-	=62-	=62-	=62-	=62-	=62-	=62-
.	.	.	.	1e	.	.	.	.	.	1e	-pe-	.
2C/	.	.	.	.	.	.	.	.	.	.	.	.
1D	-pe-	.	.	2.f\	.	.	1F	Zi-	.	0d	.	.
.	.	.	.	4e\	.	.	.	.	.	.	.	.
=63-	=63-	=63-	=63-	=63-	=63-	=63-	=63-	=63-	=63-	=63-	=63-	=63-
1GG	-rat	.	.	4d\	.	.	1B-	-ma	.	.	.	.
.	.	.	.	4c\	.	.	.	.	.	.	.	.
.	.	.	.	2d\	-pe-	.	.	.	.	.	.	.
2rAA	.	.	.	1c	-re	.	0A	ſco-	.	1e	-rat	.
1AA/	et	.	.	.	.	.	.	.	.	.	.	.
=64-	=64-	=64-	=64-	=64-	=64-	=64-	=64-	=64-	=64-	=64-	=64-	=64-
.	.	.	.	2r	.	.	.	.	.	2c/	et	.
2FF/	.	.	.	2c\	et	.	.	.	.	1f	Zi-	.
!	!	!	!	!	!	!	!LO:PB:g=original	!	!	!	!	!
1C	Zi-	.	.	2c\	Zi-	.	1G	-ri-	.	.	.	.
.	.	.	.	2c\	-ma	.	.	.	.	2e/	-ma	.
=65-	=65-	=65-	=65-	=65-	=65-	=65-	=65-	=65-	=65-	=65-	=65-	=65-
*	*	*	*	*	*	*	*lig	*	*	*	*	*
2D/	-ma	.	.	2A/	ſco-	.	1F	-ae	.	1d	.	.
1BB-	.	.	.	2B-\	.	.	.	.	.	.	.	.
.	.	.	.	2G/	.	.	1E	.	.	1c	.	.
2AA/	.	.	.	2c\	.	.	.	.	.	.	.	.
*	*	*	*	*	*	*	*Xlig	*	*	*	*	*
=66-	=66-	=66-	=66-	=66-	=66-	=66-	=66-	=66-	=66-	=66-	=66-	=66-
2BB-/	.	.	.	2d\	.	.	0rA	.	.	2B-/	.	.
2C/	.	.	.	2c\	.	.	.	.	.	1A	.	.
2D/	.	.	.	1B-	.	.	.	.	.	.	.	.
2E/	.	.	.	.	.	.	.	.	.	2G/	.	.
=67-	=67-	=67-	=67-	=67-	=67-	=67-	=67-	=67-	=67-	=67-	=67-	=67-
2F\	ſco-	.	.	2A\	.	.	2r	.	.	2A/	ſco-	.
2BB-/	-ri-	.	.	2d\	.	.	1G	tol-	.	2B-/	.	.
1C	-ae	.	.	2.c\	.	.	.	.	.	1G	-ri-	.
.	.	.	.	.	.	.	2G/	-lit	.	.	.	.
.	.	.	.	4B-\	.	.	.	.	.	.	.	.
=68-	=68-	=68-	=68-	=68-	=68-	=68-	=68-	=68-	=68-	=68-	=68-	=68-
2FF/	.	.	.	4A\	.	.	1A	de	.	1F	-ae	.
.	.	.	.	4G\	.	.	.	.	.	.	.	.
2.F\	tol-	.	.	4F/	.	.	.	.	.	.	.	.
.	.	.	.	4E/	-ri-	.	.	.	.	.	.	.
.	.	.	.	1D	-ae	.	1F	.	.	2.f\	tol-	.
4E\	.	.	.	.	.	.	.	.	.	.	.	.
4D\	.	.	.	.	.	.	.	.	.	.	.	.
4C\	.	.	.	.	.	.	.	.	.	4e\	.	.
!LO:LB:g=original	!	!	!	!	!	!	!	!	!	!	!	!
=69-	=69-	=69-	=69-	=69-	=69-	=69-	=69-	=69-	=69-	=69-	=69-	=69-
*	*	*	*	*	*	*	*lig	*	*	*	*	*
2BB-/	.	.	.	2rD	.	.	1G	.	.	2d\	.	.
!	!	!	!	!LO:LB:g=original	!	!	!	!	!	!	!	!
2AA/	.	.	.	2A/	tol-	.	.	.	.	2c/	-lit	.
*	*	*	*	*	*	*	*col	*	*	*	*	*
2GG/	.	.	.	2B-/	.	.	2.E/	.	.	2.g\	de	.
1C/	.	.	.	2G/	.	.	.	.	.	.	.	.
*	*	*	*	*	*	*	*Xlig	*	*	*	*	*
.	.	.	.	.	.	.	4D/	.	.	4f\	.	.
*	*	*	*	*	*	*	*Xcol	*	*	*	*	*
!	!	!	!	!	!	!	!	!	!	!LO:LB:g=original	!	!
=70-	=70-	=70-	=70-	=70-	=70-	=70-	=70-	=70-	=70-	=70-	=70-	=70-
.	.	.	.	2A/	.	.	4E/	.	.	2e\	.	.
.	.	.	.	.	.	.	4F/	.	.	.	.	.
2BB-/	.	.	.	2B-/	.	.	2.G/	.	.	2d\	.	.
2AA/	.	.	.	2c\	.	.	.	.	.	2c/	.	.
.	.	.	.	.	.	.	4F/	.	.	.	.	.
2FF/	.	.	.	2A\	.	.	1F/	.	.	1d\	.	.
=71-	=71-	=71-	=71-	=71-	=71-	=71-	=71-	=71-	=71-	=71-	=71-	=71-
1GG	-lit	.	.	2.B-\	.	.	.	.	.	.	.	.
.	.	.	.	.	.	.	2E/	.	.	4c/	.	.
.	.	.	.	4c\	.	.	.	.	.	4B-/	.	.
*	*	*	*	*	*	*	*lig	*	*	*	*	*
2FF/	.	.	.	2d\	.	.	1F	me-	.	1A	.	.
1F\	de	.	.	1.c\	-lat	.	.	.	.	.	.	.
=72-	=72-	=72-	=72-	=72-	=72-	=72-	=72-	=72-	=72-	=72-	=72-	=72-
.	.	.	.	.	.	.	1G	.	.	2G/	.	.
2E\	.	.	.	.	.	.	.	.	.	2.g\	me-	.
*	*	*	*	*	*	*	*Xlig	*	*	*	*	*
2D/	.	.	.	2d\	de	.	2A/	.	.	.	.	.
.	.	.	.	.	.	.	.	.	.	4f\	.	.
2BB-/	me-	.	.	2d\	me-	.	2B-/	.	.	1f\	.	.
=73-	=73-	=73-	=73-	=73-	=73-	=73-	=73-	=73-	=73-	=73-	=73-	=73-
1C	-di-	.	.	1c	-di-	.	1G	-di-	.	.	.	.
.	.	.	.	.	.	.	.	.	.	2e\	-di-	.
1FFl;; 1F	-o	.	.	1cl;<	-o	.	1Fl;;	-o	.	1fl;;	-o	.
=74||	=74||	=74||	=74||	=74||	=74||	=74||	=74||	=74||	=74||	=74||	=74||	=74||
*	*	*	*	*M2/1	*	*	*M2/1	*	*	*M2/1	*	*
*	*	*	*	*met(C)	*	*	*met(C)	*	*	*met(C)	*	*
!	!	!	!	!LO:TX:b:t=P:problem:Inicjał "F" przed metrum	!	!	!LO:TX:b:t=P:problem:Inicjał "F" przed metrum	!	!	!LO:TX:b:t=P:problem:Inicjał "F" przed metrum	!	!
1F	Fo-	.	E-	1F	Fo-	E-	1f	Fo-	E-	1f	Fo-	E-
1G	.	.	.	1G	-ras	-xi	2e\	-ras	.	2e\	-ras	-xi
.	.	.	.	.	.	.	2.d\	.	.	2.d\	e-	qui
=75-	=75-	=75-	=75-	=75-	=75-	=75-	=75-	=75-	=75-	=75-	=75-	=75-
2B-\	.	.	.	1B-	e-	qui	.	.	.	.	.	.
.	.	.	.	.	.	.	4c\	.	.	4c/	.	.
1BB-	.	.	.	.	.	.	4B-\	.	.	4B-/	.	.
.	.	.	.	.	.	.	4A\	.	.	4A/	.	.
!	!	!	!	!	!	!	!LO:LB:g=original	!	!	!	!	!
.	.	.	.	1B-	-ij-	mit-	1G 1B-	.	-xi	2G/	.	.
2BB-/	-ras	.	-xi	.	.	.	.	.	.	1g\	-i-	mit-
=76-	=76-	=76-	=76-	=76-	=76-	=76-	=76-	=76-	=76-	=76-	=76-	=76-
1rD	.	.	.	2.A/	.	.	1rA	.	.	.	.	.
.	.	.	.	.	.	.	.	.	.	1f	-ci-	-te-
.	.	.	.	4B-\	.	.	.	.	.	.	.	.
1C	Fo-	.	e-	4c\	.	.	1c	fo-	e-	.	.	.
.	.	.	.	4B-\	.	.	.	.	.	.	.	.
.	.	.	.	4A\	.	.	.	.	.	2e\	-at	-ris
.	.	.	.	4G\	-ci-	-te-	.	.	.	.	.	.
=77-	=77-	=77-	=77-	=77-	=77-	=77-	=77-	=77-	=77-	=77-	=77-	=77-
*	*	*	*	*	*	*	*	*	*	*	*ij	*ij
1D	-ras	.	-xi	1F	-at	-ris	2B-\	-ras	.	2f\	Fo-	E-
.	.	.	.	.	.	.	2.A/	e-	.	4e\	.	.
.	.	.	.	.	.	.	.	.	.	4d\	.	.
1F	e-	.	qui	0rD	.	.	.	.	.	2c/	-ras	-xi
.	.	.	.	.	.	.	4G/	.	.	.	.	.
.	.	.	.	.	.	.	4F/	.	.	2.d\	e-	qui
.	.	.	.	.	.	.	4E/	.	.	.	.	.
=78-	=78-	=78-	=78-	=78-	=78-	=78-	=78-	=78-	=78-	=78-	=78-	=78-
1F	-i-	.	mit-	.	.	.	2D/	.	-xi	.	.	.
.	.	.	.	.	.	.	.	.	.	4c\	.	.
!	!	!	!	!	!	!	!	!	!	!LO:LB:g=original	!	!
.	.	.	.	.	.	.	1d	.	qui	2f\	.	.
1E	-ci-	.	-te-	1rF	.	.	.	.	.	2g\	-i-	mit-
.	.	.	.	.	.	.	1c\	-i-	mit-	4f\	.	.
.	.	.	.	.	.	.	.	.	.	4e\	.	.
!	!	!	!	!LO:LB:g=original	!	!	!	!	!	!	!	!
=79-	=79-	=79-	=79-	=79-	=79-	=79-	=79-	=79-	=79-	=79-	=79-	=79-
1G	-at	.	-ris	2r	.	.	.	.	.	1d	-ci-	-te-
.	.	.	.	1G	mun-	haec	2B-\	-ci-	-te-	.	.	.
!LO:LB:g=original	!	!	!	!	!	!	!	!	!	!	!	!
1E	Mun-	.	haec	.	.	.	1c	-at	-ris	1e	-at	-ris
*	*	*	*	*	*	*	*	*	*	*	*Xij	*Xij
.	.	.	.	2G/	-da-	do-	.	.	.	.	.	.
=80-	=80-	=80-	=80-	=80-	=80-	=80-	=80-	=80-	=80-	=80-	=80-	=80-
1F	.	.	do-	2.A/	-nu(m)	.	2r	.	.	2rB	.	.
.	.	.	.	.	.	.	2F/	mun-	haec	2F/	mun-	haec
.	.	.	.	4B-\	.	.	.	.	.	.	.	.
2E\	-da-	.	-na	2c\	Prin-	-na	2G/	-da-	do-	2G/	-da-	do-
2D/	-nu(m)	.	diſ-	1d\	.	diſ-	2A/	-nu(m)	-na	2A/	-nu(m)	-na
=81-	=81-	=81-	=81-	=81-	=81-	=81-	=81-	=81-	=81-	=81-	=81-	=81-
2E\	Prin-	.	-ſe-	.	.	.	2G/	Prin-	diſ-	2G/	Prin-	diſ-
2F\	-ci-	.	-re	1c	.	.	1A	.	[[-ſe-	1A	-ci-	-ſe-
1D	-pem	.	re-	.	.	.	.	.	.	.	.	.
.	.	.	.	2B-\	-ci-	-se-	4G/	.	-re]]	4G/	.	.
.	.	.	.	.	.	.	4F/	.	.	4F/	.	.
=82-	=82-	=82-	=82-	=82-	=82-	=82-	=82-	=82-	=82-	=82-	=82-	=82-
1C	Ma-	.	-ve-	0c	-pem	-re	2G/	.	.	2G/	-pe(m)	-re
.	.	.	.	.	.	.	2G/	-ci-	-ſe-	2g\	Ma-	re-
0C	.	.	-la	.	.	.	2A/	-pem	-re	1e	-tre(m)	-ue-
.	.	.	.	.	.	.	1c\	Ma-	re-	.	.	.
=83-	=83-	=83-	=83-	=83-	=83-	=83-	=83-	=83-	=83-	=83-	=83-	=83-
*	*	*	*	*	*	*	*	*	*	*lig	*	*
.	.	.	.	1r	.	.	.	.	.	1g	.	-la
.	.	.	.	.	.	.	2c\	-tre(m)	-ue-	.	.	.
1D	.	.	.	2r	.	.	2A/	q(ue)	-la	1f	.	.
.	.	.	.	1F/	Ma-	re-	1d\	fa-	Ve-	.	.	.
*	*	*	*	*	*	*	*	*	*	*Xlig	*	*
=84-	=84-	=84-	=84-	=84-	=84-	=84-	=84-	=84-	=84-	=84-	=84-	=84-
1D	-tre(m)	.	.	.	.	.	.	.	.	2d\	fa-	.
.	.	.	.	4E/	.	.	2d\	-ci-	-la-	2f\	.	.
.	.	.	.	4D/	.	.	.	.	.	.	.	.
0r	.	.	.	2C/	.	.	2e\	-at	-men	2e\	.	.
.	.	.	.	4D/	.	.	1f\	ſe-	.	2d\	-ci-	.
.	.	.	.	4E/	.	.	.	.	.	.	.	.
=85-	=85-	=85-	=85-	=85-	=85-	=85-	=85-	=85-	=85-	=85-	=85-	=85-
.	.	.	.	2F/	.	.	.	.	.	1c	-at	.
.	.	.	.	2C/	.	.	2e\	-cu(m)	.	.	.	.
!	!	!	!	!	!	!	!LO:LB:g=original	!	!	!	!	!
[1F	[[qve]]	.	Ve-	2.D/	.	.	1d	par-	.	2.F/	ſe	ue-
.	.	.	.	4E/	.	.	.	.	.	4G/	.	.
=86-	=86-	=86-	=86-	=86-	=86-	=86-	=86-	=86-	=86-	=86-	=86-	=86-
1F]	fa-	.	.	1F	-trem	-ue-	2.c\	.	lit-	2.A/	.	.
.	.	.	.	.	.	.	4d\	.	.	4B-\	.	.
1E	-ci-	.	-te-	1C	q(ue)	-la	4e\	.	.	4c\	.	.
.	.	.	.	.	.	.	4f\	.	.	4d\	.	.
.	.	.	.	.	.	.	1g\	.	.	2e\	.	.
=87-	=87-	=87-	=87-	=87-	=87-	=87-	=87-	=87-	=87-	=87-	=87-	=87-
!LO:TX:a:t=P:problem:rozdzielacz słów:global	!	!	!	!	!	!	!	!	!	!	!	!
1G,<	-at	.	-ris	0rA	.	.	.	.	.	2d\	.	.
.	.	.	.	.	.	.	4f\	-ti-	.	1c	.	-tens
.	.	.	.	.	.	.	4e\	.	.	.	.	.
1G	ſe-	.	Ve-	.	.	.	1d	-ci-	-te-	.	.	.
!	!	!	!	!	!	!	!	!	!	!LO:TX:t=P:problem:karta urwana	!	!
.	.	.	.	.	.	.	.	.	.	2c\yy	.	.
!	!	!	!	!	!	!	!	!	!	!LO:PB:g=original	!	!
=88-	=88-	=88-	=88-	=88-	=88-	=88-	=88-	=88-	=88-	=88-	=88-	=88-
1A,<	-cu(m)	.	-la-	1rA	.	.	1c	-pem	-rae	2.c/	par-	li-
.	.	.	.	.	.	.	.	.	.	4d\	.	.
1B-	par-	.	-men	1G	fa-	Ve-	1r	.	.	4e\	.	.
.	.	.	.	.	.	.	.	.	.	4f\	.	.
.	.	.	.	.	.	.	.	.	.	1g\	.	.
=89-	=89-	=89-	=89-	=89-	=89-	=89-	=89-	=89-	=89-	=89-	=89-	=89-
1A	-ti-	.	li-	2A/	.	.	1D	Pa-	Vi-	.	.	.
.	.	.	.	1c	.	.	.	.	.	1f	-ti-	-te-
*	*	*	*	*	*	*	*lig	*	*	*	*	*
1G	-ci-	.	-te-	.	.	.	1E	.	-tu-	.	.	.
.	.	.	.	2B-\	-ci-	-te-	.	.	.	2e\	-ce-	.
=90-	=90-	=90-	=90-	=90-	=90-	=90-	=90-	=90-	=90-	=90-	=90-	=90-
*lig	*	*	*	*	*	*	*col	*	*	*	*	*
1F	-pem	.	-rae	2.c\	-at	-ris	2.F/	.	.	1f	-pe(m)	-rae
*	*	*	*	*	*	*	*Xlig	*	*	*	*	*
.	.	.	.	4d\	.	.	4G/	.	.	.	.	.
*	*	*	*	*	*	*	*Xcol	*	*	*	*	*
1E	.	.	.	4e\	.	.	2A/	.	.	2c/	pa-	Vir-
.	.	.	.	4f\	.	.	.	.	.	.	.	.
.	.	.	.	1g\	.	.	2E/	.	.	2G/	.	.
*Xlig	*	*	*	*	*	*	*	*	*	*	*	*
!	!	!	!	!LO:LB:g=original	!	!	!	!	!	!	!	!
=91-	=91-	=91-	=91-	=91-	=91-	=91-	=91-	=91-	=91-	=91-	=91-	=91-
2F\	Par-	[[pa	Vir-	.	.	.	2F/	.	.	2A/	.	.
2G\	.	.	.	1f	.	.	2G/	.	.	2B-/	.	.
2.E/	-ti-	.	-tu-	.	.	.	1E	-tris	-te	1G	.	-tu-
.	.	.	.	2e\	.	.	.	.	.	.	.	.
4E/	-ci-	.	-te	.	.	.	.	.	.	.	.	.
=92-	=92-	=92-	=92-	=92-	=92-	=92-	=92-	=92-	=92-	=92-	=92-	=92-
2D/	-pem	-tris]]	.	1.f	ſe-	Ve	2.F/	Im-	Vir-	2.F/	.	-te
2r	.	.	.	.	.	.	.	.	.	.	.	.
.	.	.	.	.	.	.	4G/	.	.	4G/	.	.
1r	.	.	.	.	.	.	4A\	.	.	4A/	.	.
.	.	.	.	.	.	.	4B-\	.	.	4B-/	.	.
.	.	.	.	4e\	.	.	1c\	-pe-	.	2c/	-tris	.
.	.	.	.	4d\	.	.	.	.	.	.	.	.
!LO:LB:g=original	!	!	!	!	!	!	!	!	!	!	!	!
=93-	=93-	=93-	=93-	=93-	=93-	=93-	=93-	=93-	=93-	=93-	=93-	=93-
1G	Pa-	.	Vir-	2.e\	.	.	.	.	.	1g	pa-	Vir-
.	.	.	.	.	.	.	4B-\	.	.	.	.	.
.	.	.	.	4f\	.	.	4A\	.	.	.	.	.
*lig	*	*	*	*	*	*	*	*	*	*lig	*	*
1G	-tris	.	-tu-	1d	.	.	1B-	.	-tu-	1g	-tris	-tu-
=94-	=94-	=94-	=94-	=94-	=94-	=94-	=94-	=94-	=94-	=94-	=94-	=94-
1A	.	.	.	2c\	-cum	lu-	1c	.	-te	1e	.	.
.	.	.	.	2A/	.	-men	.	.	.	.	.	.
*Xlig	*	*	*	*	*	*	*	*	*	*Xlig	*	*
1F	im-	.	.	2.c\	Par-	li-	2A/	.	.	2.f\	Im-	.
.	.	.	.	.	.	.	2.c\	.	nun-	.	.	.
.	.	.	.	4B-\	.	.	.	.	.	4e\	.	.
=95-	=95-	=95-	=95-	=95-	=95-	=95-	=95-	=95-	=95-	=95-	=95-	=95-
*lig	*	*	*	*	*	*	*	*	*	*	*	*
1F	-pe-	.	-te	2A/	-ti-	-te-	.	.	.	2c/	.	.
.	.	.	.	.	.	.	4B-\	.	.	.	.	.
.	.	.	.	2F/	-ci-	.	2A/	.	.	1d	.	-te
1E	.	.	.	1G	-pem	-rae	1G	.	.	.	.	.
.	.	.	.	.	.	.	.	.	.	2c/	.	.
*Xlig	*	*	*	*	*	*	*	*	*	*	*	*
!	!	!	!	!	!	!	!LO:LB:g=original	!	!	!	!	!
=96-	=96-	=96-	=96-	=96-	=96-	=96-	=96-	=96-	=96-	=96-	=96-	=96-
1D	.	.	nun-	1A	.	.	2F/	.	.	1d	.	nun-
.	.	.	.	.	.	.	2f\	.	.	.	.	.
2E\	.	.	.	1re	.	.	2e\	.	.	2c/	.	.
1G\	.	.	.	.	.	.	2.d\	.	.	1B-/	.	.
=97-	=97-	=97-	=97-	=97-	=97-	=97-	=97-	=97-	=97-	=97-	=97-	=97-
.	.	.	.	2rd	.	.	.	.	.	.	.	.
.	.	.	.	.	.	.	4c\	.	.	.	.	.
1F	.	.	.	2c\	Pa-	Vir-	2A/	.	.	2A/	.	.
.	.	.	.	2d\	-tris	-tu-	1B-	.	.	1G	.	.
2E/	.	.	.	2e\	Im-	-te	.	.	.	.	.	.
=98-	=98-	=98-	=98-	=98-	=98-	=98-	=98-	=98-	=98-	=98-	=98-	=98-
*	*	*	*	*	*	*	*lig	*	*	*	*	*
2F/	.	.	.	2A\	-pe-	nun-	1F	-ri-	-ti-	2F/	.	.
2D/	.	.	.	2B-\	.	.	.	.	.	1f	-pe-	.
1C	-ri-	.	-ti-	1c	.	.	1G	.	.	.	.	.
.	.	.	.	.	.	.	.	.	.	2e\	-ri-	-ci-
*	*	*	*	*	*	*	*Xlig	*	*	*	*	*
!	!	!	!	!	!	!	!	!	!	!LO:LB:g=original	!	!
=99-	=99-	=99-	=99-	=99-	=99-	=99-	=99-	=99-	=99-	=99-	=99-	=99-
00.Fl;< 00.C 00.FF	-j	.	-j	2A/	.	.	[0Fl;;	-j.	-j	[0fl;;	-i	-i
.	.	.	.	2.F/	.	.	.	.	.	.	.	.
.	.	.	.	4G/	.	.	.	.	.	.	.	.
.	.	.	.	2A/	.	.	.	.	.	.	.	.
=100-	=100-	=100-	=100-	=100-	=100-	=100-	=100-	=100-	=100-	=100-	=100-	=100-
.	.	.	.	2.D/	.	.	0F_	.	.	0f_	.	.
.	.	.	.	4E/	.	.	.	.	.	.	.	.
.	.	.	.	2F/	.	.	.	.	.	.	.	.
.	.	.	.	2C/	-ri-	-ti-	.	.	.	.	.	.
=101-	=101-	=101-	=101-	=101-	=101-	=101-	=101-	=101-	=101-	=101-	=101-	=101-
.	.	.	.	0Cl;;	-j	-j	0F]	.	.	0f]	.	.
!	!	!	!	!LO:LB:g=original	!	!	!	!	!	!	!	!
=102||	=102||	=102||	=102||	=102||	=102||	=102||	=102||	=102||	=102||	=102||	=102||	=102||
*M3/2	*	*	*	*M3/2	*	*	*M2/1	*	*	*M3/2	*	*
!	!	!	!	!LO:TX:a:t=2	!	!	!LO:N:vis=0	!	!	!	!	!
!	!	!	!	!LO:TX:t=P:problem:kreska pseudotaktowa	!	!	!LO:TX:t=P:problem:w tym segmencie w Altus metrum C i nuty brevis	!	!	!	!	!
!	!	!	!	!LO:TX:b:t=P:problem:Inicjał "A" przed metrum	!	!	!LO:TX:b:t=P:problem:Inicjał "A" przed metrum	!	!	!LO:TX:b:t=P:problem:Inicjał "A" przed metrum	!	!
2.FF/	Ac-	.	Vir-	0.F	Ac-	Vir-	0.F	Ac-	Vir-	1f	Aac-	Vir-
4GG/	.	.	.	.	.	.	.	.	.	.	.	.
!	!	!	!	!	!	!	!	!	!	!LO:TX:t=P:problem:kreska pseudotaktowa	!	!
2AA/	.	.	.	.	.	.	.	.	.	2c/	.	.
=103-	=103-	=103-	=103-	=103-	=103-	=103-	=103-	=103-	=103-	=103-	=103-	=103-
2.BB-/	-ce-	.	.	.	.	.	.	.	.	2.d\	-ce-	.
4C/	.	.	.	.	.	.	.	.	.	4e\	.	.
2D/	.	.	.	.	.	.	.	.	.	2f\	.	.
=104-	=104-	=104-	=104-	=104-	=104-	=104-	=104-	=104-	=104-	=104-	=104-	=104-
!	!	!	!	!	!	!	!LO:N:vis=0	!	!	!	!	!
1.C	.	.	.	2.C/	-ce-	-go	0.c	-ce-	-go	2.e\	.	.
.	.	.	.	4D/	.	.	.	.	.	4f\	.	.
.	.	.	.	2E/	.	.	.	.	.	2g\	.	.
=105-	=105-	=105-	=105-	=105-	=105-	=105-	=105-	=105-	=105-	=105-	=105-	=105-
1.FF	-de	.	-go	2.F/	.	.	.	.	.	1.f	-de	-go
.	.	.	.	4G/	.	.	.	.	.	.	.	.
.	.	.	.	2A/	.	.	.	.	.	.	.	.
=106-	=106-	=106-	=106-	=106-	=106-	=106-	=106-	=106-	=106-	=106-	=106-	=106-
*	*ij	*	*	*	*	*	*	*	*	*	*	*ij
!	!	!	!	!	!	!	!LO:N:vis=0	!	!	!	!	!
2.C/	Ac-	.	Vir-	1.G	-de	.	0.c,<	-de	ſu-	1.g	ac-	Vir-
4D\	.	.	.	.	.	.	.	.	.	.	.	.
2E\	.	.	.	.	.	.	.	.	.	.	.	.
=107-	=107-	=107-	=107-	=107-	=107-	=107-	=107-	=107-	=107-	=107-	=107-	=107-
2.F\	-ce-	.	.	2.A/	ac-	Vir-	.	.	.	2d\	.	.
.	.	.	.	.	.	.	.	.	.	2f\	-ce-	.
4G\	.	.	.	4B-\	.	.	.	.	.	.	.	.
2A\	.	.	.	2c\	.	.	.	.	.	2e\	.	.
=108-	=108-	=108-	=108-	=108-	=108-	=108-	=108-	=108-	=108-	=108-	=108-	=108-
!	!	!	!	!	!	!	!LO:N:vis=0	!	!	!	!	!
1.G	.	.	.	2.B-\	-ce-	.	0.d	nun-	-ſci-	1.g	.	.
.	.	.	.	4c\	.	.	.	.	.	.	.	.
.	.	.	.	4d\	.	.	.	.	.	.	.	.
.	.	.	.	4e\	.	.	.	.	.	.	.	.
=109-	=109-	=109-	=109-	=109-	=109-	=109-	=109-	=109-	=109-	=109-	=109-	=109-
1.D	-de	.	-go	1.f	-de	-go	.	.	.	1.a	-de	-go
*	*Xij	*	*	*	*	*	*	*	*	*	*	*Xij
!LO:LB:g=original	!	!	!	!	!	!	!	!	!	!	!	!
=110-	=110-	=110-	=110-	=110-	=110-	=110-	=110-	=110-	=110-	=110-	=110-	=110-
*col	*	*	*	*	*	*	*	*	*	*col	*	*
!	!	!	!	!	!	!	!LO:N:vis=0	!	!	!	!	!
1E	nun-	.	ſu-	1.r	.	.	0.B-	-ti-	-pi-	1g	nun-	ſu-
[1D\	-ci-	.	-ſci-	.	.	.	.	.	.	1f\	.	-ſci-
=111-	=111-	=111-	=111-	=111-	=111-	=111-	=111-	=111-	=111-	=111-	=111-	=111-
.	.	.	.	2rF	.	.	.	.	.	.	.	.
1D]	.	.	-pi-	1F	nun-	ſuſ-	.	.	.	1d	-ti-	-pi-
*Xcol	*	*	*	*	*	*	*	*	*	*Xcol	*	*
=112-	=112-	=112-	=112-	=112-	=112-	=112-	=112-	=112-	=112-	=112-	=112-	=112-
!	!	!	!	!	!	!	!LO:N:vis=0	!	!	!	!	!
1.C	-a	.	-as	1G	.	-ci-	0.c	-a	-as	2.e\	-a	-as
.	.	.	.	.	.	.	.	.	.	4d\	.	.
.	.	.	.	2E/	-ti-	-pi-	.	.	.	4c\	.	.
.	.	.	.	.	.	.	.	.	.	4B-\	.	.
=113-	=113-	=113-	=113-	=113-	=113-	=113-	=113-	=113-	=113-	=113-	=113-	=113-
*	*	*	*	*	*	*	*	*	*	*	*	*ij
1.F	dic	.	De-	2.A/	-a	-as	.	.	.	2A/	.	ſu-
.	.	.	.	.	.	.	.	.	.	2.a\	.	-ſci-
.	.	.	.	4G/	.	.	.	.	.	.	.	.
.	.	.	.	2F/	.	.	.	.	.	.	.	.
!	!	!	!	!	!	!	!	!	!	!LO:SIC:v:t=custos f	!	!
.	.	.	.	.	.	.	.	.	.	4g\	.	.
!	!	!	!	!	!	!	!	!	!	!LO:LB:g=original	!	!
=114-	=114-	=114-	=114-	=114-	=114-	=114-	=114-	=114-	=114-	=114-	=114-	=114-
!	!	!	!	!	!	!	!LO:N:vis=0	!	!	!	!	!
1.D	a-	.	-i	2B-\	dic	De-	0.d	dic	De-	4f\	.	.
.	.	.	.	.	.	.	.	.	.	4e\	.	.
.	.	.	.	1A	a-	.	.	.	.	2.d\	.	-pi-
.	.	.	.	.	.	.	.	.	.	4c/	.	.
=115-	=115-	=115-	=115-	=115-	=115-	=115-	=115-	=115-	=115-	=115-	=115-	=115-
1.G	-ue	.	de-	2.G/	-ue	.	.	.	.	4B-/	.	.
.	.	.	.	.	.	.	.	.	.	4A/	.	.
.	.	.	.	.	.	.	.	.	.	1G	.	-as
*	*	*	*	*	*	*	*	*	*	*	*	*Xij
.	.	.	.	4A\	.	.	.	.	.	.	.	.
.	.	.	.	2B-\	.	-i	.	.	.	.	.	.
=116-	=116-	=116-	=116-	=116-	=116-	=116-	=116-	=116-	=116-	=116-	=116-	=116-
!	!	!	!	!	!	!	!LO:N:vis=0	!	!	!	!	!
1.F	co-	.	-po-	1.c	.	de-	0.f	a-	-i	1.A	nun-	ſu-
!	!	!	!	!LO:LB:g=original	!	!	!	!	!	!	!	!
=117-	=117-	=117-	=117-	=117-	=117-	=117-	=117-	=117-	=117-	=117-	=117-	=117-
1.BB-	.	.	.	1.d	co-	-po-	.	.	.	1.B-	.	-ſci-
=118-	=118-	=118-	=118-	=118-	=118-	=118-	=118-	=118-	=118-	=118-	=118-	=118-
!	!	!	!	!	!	!	!LO:N:vis=0	!	!	!	!	!
1.C	-mi-	.	-ſi-	1.e	-mi-	-si-	0.c	-ue	de-	1.G	-ti-	-pi-
=119-	=119-	=119-	=119-	=119-	=119-	=119-	=119-	=119-	=119-	=119-	=119-	=119-
1FF	-n(us)	.	-tu(m)	1f	-n(us)	-tum	.	.	.	1.A	-a	-as
!LO:TX:t=P:problem:kreska pseudotaktowa	!	!	!	!	!	!	!	!	!	!	!	!
2rAA	.	.	.	2rf	.	.	.	.	.	.	.	.
=120-	=120-	=120-	=120-	=120-	=120-	=120-	=120-	=120-	=120-	=120-	=120-	=120-
!	!	!	!	!	!	!	!LO:N:vis=0	!	!	!	!	!
2.GG/	dic	.	in	2.d\	dic	in	0.d	co-	-po-	2.B-/	dic	De-
4AA/	.	.	.	4c\	.	.	.	.	.	4c\	.	.
2BB-/	.	.	.	2B-\	.	.	.	.	.	4d\	.	.
.	.	.	.	.	.	.	.	.	.	4e\	.	.
=121-	=121-	=121-	=121-	=121-	=121-	=121-	=121-	=121-	=121-	=121-	=121-	=121-
2.D\	ple-	.	quo	2A/	ple-	quo	.	.	.	1.f	.	-i
.	.	.	.	2B-/	.	.	.	.	.	.	.	.
4E\	.	.	.	.	.	.	.	.	.	.	.	.
2F\	.	.	.	2A/	.	.	.	.	.	.	.	.
=122-	=122-	=122-	=122-	=122-	=122-	=122-	=122-	=122-	=122-	=122-	=122-	=122-
!	!	!	!	!	!	!	!LO:N:vis=0	!	!	!	!	!
1G	.	.	.	2G/	.	.	0.B-	-mi-	-si-	2.d\	a-	de-
.	.	.	.	1d	.	.	.	.	.	.	.	.
.	.	.	.	.	.	.	.	.	.	4e\	.	.
2D/	-na	.	per-	.	.	.	.	.	.	2f\	.	-po-
=123-	=123-	=123-	=123-	=123-	=123-	=123-	=123-	=123-	=123-	=123-	=123-	=123-
2.E\	gra-	.	.	2G/	.	.	.	.	.	1g	.	-ſi-
.	.	.	.	1B-	.	.	.	.	.	.	.	.
4F\	.	.	.	.	.	.	.	.	.	.	.	.
2G\	.	.	.	.	.	.	.	.	.	2d\	-ue	-tu(m)
=124-	=124-	=124-	=124-	=124-	=124-	=124-	=124-	=124-	=124-	=124-	=124-	=124-
*M2/1	*	*	*	*M2/1	*	*	*	*	*	*M2/1	*	*
*met(C)	*	*	*	*met(C)	*	*	*	*	*	*met(C)	*	*
2.C/	.	.	.	1.G	-na	.	0c	-n(us)	-tum	1e	dic	in
4D\	.	.	.	.	.	.	.	.	.	.	.	.
2E\	.	.	.	.	.	.	.	.	.	2e\	a-	quo
*	*	*	*	*col	*	*	*	*	*	*	*	*
!	!	!	!	!LO:TX:t=P:problem:color chyba błędnie użyty przez skryptora, bo wg zasad wartości wychodziłyby inne, a zgadza się to tylko tak.	!	!	!	!	!	!	!	!
!	!	!	!	!LO:N:vis=00	!	!	!	!	!	!	!	!
1F\	.	.	.	2.A\	gra-	per-	.	.	.	2c/	-ue	per-
!	!	!	!	!	!	!	!LO:LB:g=original	!	!	!	!	!
=125-	=125-	=125-	=125-	=125-	=125-	=125-	=125-	=125-	=125-	=125-	=125-	=125-
.	.	.	.	.	.	.	0r	.	.	1f	Co-	-fi-
.	.	.	.	4F/	.	.	.	.	.	.	.	.
*	*	*	*	*Xcol	*	*	*	*	*	*	*	*
4E/	.	.	.	1B-	.	.	.	.	.	.	.	.
4D/	.	.	.	.	.	.	.	.	.	.	.	.
!LO:PB:g=original	!	!	!	!	!	!	!	!	!	!	!	!
1C	.	.	.	.	.	.	.	.	.	1e	-mi-	-ci-
.	.	.	.	2A/	.	.	.	.	.	.	.	.
=126-	=126-	=126-	=126-	=126-	=126-	=126-	=126-	=126-	=126-	=126-	=126-	=126-
1.BB-	.	.	.	2.B-/	.	.	1.d	dic	in	1d	-n(us)	-aſ
.	.	.	.	4A/	.	.	.	.	.	.	.	.
.	.	.	.	2F/	.	.	.	.	.	1r	.	.
2AA/	.	.	-fi-	1c\	.	-fe-	1.e\	ple-	quo	.	.	.
!	!	!	!	!	!	!	!	!	!	!LO:LB:g=original	!	!
=127-	=127-	=127-	=127-	=127-	=127-	=127-	=127-	=127-	=127-	=127-	=127-	=127-
1GG	-ti-	.	-ci-	.	.	.	.	.	.	2r	.	.
.	.	.	.	2B-\	-ti-	-ci-	.	.	.	2G/	dic	Ca-
1FF	-a	.	-as	1c	-a	-as	1.f	-na	per-	2A/	.	-ſtum
.	.	.	.	.	.	.	.	.	.	2.F/	ple-	pro-
=128-	=128-	=128-	=128-	=128-	=128-	=128-	=128-	=128-	=128-	=128-	=128-	=128-
0rC	.	.	.	1r	.	.	.	.	.	.	.	.
.	.	.	.	.	.	.	.	.	.	4G/	.	.
.	.	.	.	.	.	.	1.e	gra-	-fi-	4A/	.	.
.	.	.	.	.	.	.	.	.	.	4B-/	.	.
.	.	.	.	1c	dic	ca-	.	.	.	1c	-na	.
=129-	=129-	=129-	=129-	=129-	=129-	=129-	=129-	=129-	=129-	=129-	=129-	=129-
1rD	.	.	.	2.B-\	te-	.	1.d	-ti-	-ci-	2.G/	gra-	.
.	.	.	.	4c\	.	.	.	.	.	4A/	.	.
2r	.	.	.	2d\	.	.	.	.	.	2B-/	.	.
1F\	dic	.	ca-	2.A/	-cu(m)	-ſtu	1.c,<\	-a	-as	2.c\	.	.
=130-	=130-	=130-	=130-	=130-	=130-	=130-	=130-	=130-	=130-	=130-	=130-	=130-
.	.	.	.	.	.	.	.	.	.	.	.	.
.	.	.	.	4B-\	.	.	.	.	.	4d\	.	.
2E/	.	.	-ſtu(m)	2c\	.	.	.	.	.	2e\	.	-po-
!	!	!	!	!LO:LB:g=original	!	!	!	!	!	!	!	!
1D	te-	.	.	1d	Do-	Pro-	1A	dic	caſ-	1f	-ti-	-ſi-
=131-	=131-	=131-	=131-	=131-	=131-	=131-	=131-	=131-	=131-	=131-	=131-	=131-
1C	-cu(m)	.	.	2G/	.	-po-	1c	te-	-tu(m)	1e	-a	-tu(m)
.	.	.	.	1c	.	.	.	.	.	.	.	.
1G	Do-	.	Pro-	.	.	.	1d	-cu(m)	pro	2r	.	.
.	.	.	.	2B-\	.	.	.	.	.	2d\	dic	ca-
=132-	=132-	=132-	=132-	=132-	=132-	=132-	=132-	=132-	=132-	=132-	=132-	=132-
2E\	.	.	.	2c\	.	.	1c	Do-	poſ-	2e\	te-	-ſtum
2F\	.	.	.	2A/	.	.	.	.	.	2c/	-cu(m)	.
*	*	*	*	*	*	*	*lig	*	*	*	*	*
2D/	.	.	.	2B-/	.	.	1B-	.	.	2d\	Do-	pro-
2E/	.	.	.	2G/	.	.	.	.	.	1g\	.	-po-
=133-	=133-	=133-	=133-	=133-	=133-	=133-	=133-	=133-	=133-	=133-	=133-	=133-
2C/	.	.	.	2c\	.	.	1A	.	.	.	.	.
2D/	.	.	.	2A/	.	.	.	.	.	1f	.	.
*	*	*	*	*	*	*	*Xlig	*	*	*	*	*
2BB-/	.	.	-po	2d\	.	.	1G	-mi-	-ctu-	.	.	.
!LO:TX:t=P:problem:po nucie, przed oznaczeniem metrycznym jest jeszcze znak tempus, wyglądający jak semibrevis...	!	!	!	!LO:TX:t=P:problem:po nucie, przed oznaczeniem metrycznym jest jeszcze znak tempus, wyglądający jak semibrevis... A tyle się namęczyłem, żeby tą "semibrevis" zmieścić w partyturze i zrozumieć czemu to się nie zgadza... :/	!	!	!	!	!	!	!	!
2C/	-mi-	.	ſi-	2c\	-mi-	-ſi-	.	.	.	2e\	-mi-	-ſi-
=134-	=134-	=134-	=134-	=134-	=134-	=134-	=134-	=134-	=134-	=134-	=134-	=134-
*M3/1	*	*	*	*M3/1	*	*	*M3/1	*	*	*M3/1	*	*
0.FF	-n(us)	.	-tu(m)	0.A	-n(us)	-tu(m)	0.F	-n(us)	-it	0.f	-n(us)	-tu(m)
=135-	=135-	=135-	=135-	=135-	=135-	=135-	=135-	=135-	=135-	=135-	=135-	=135-
1.FF	et	.	et	0F	et	et	0A	et	et	0f	et	et
2GG/	.	.	.	.	.	.	.	.	.	.	.	.
!	!	!	!	!	!	!	!	!	!	!LO:SIC:v:t=custos d	!	!
1AA	.	.	.	1C	.	uo-	1c	dic	Vo-	1e	.	.
!	!	!	!	!	!	!	!	!	!	!LO:LB:g=original	!	!
=136-	=136-	=136-	=136-	=136-	=136-	=136-	=136-	=136-	=136-	=136-	=136-	=136-
*	*	*	*	*col	*	*	*	*	*	*	*	*
1BB-	dic	.	vo-	0F	dic	.	1B-	ne	-tu(m)	1d	dic	uo-
!	!	!	!	!	!	!	!LO:TX:t=P:problem:kreska pseudotaktowa	!	!	!	!	!
2FF/	ne	.	.	.	.	.	0A	ti-	te-	1.c	ne	.
2GG/	.	.	.	.	.	.	.	.	.	.	.	.
2AA/	.	.	.	0E	me	.	.	.	.	.	.	.
2BB-/	.	.	.	.	.	.	.	.	.	2d\	.	.
!LO:LB:g=original	!	!	!	!	!	!	!	!	!	!	!	!
=137-	=137-	=137-	=137-	=137-	=137-	=137-	=137-	=137-	=137-	=137-	=137-	=137-
*	*	*	*	*	*	*	*col	*	*	*	*	*
1C	.	.	.	.	.	.	0G	.	.	2e\	.	.
.	.	.	.	.	.	.	.	.	.	2f\	.	.
2GG/	.	.	.	0D	.	-tu(m)	.	.	.	1g	.	.
2AA/	.	.	.	.	.	.	.	.	.	.	.	.
!	!	!	!	!	!	!	!LO:TX:t=P:problem:kreska pseudotaktowa przez środek nuty	!	!	!	!	!
*	*	*	*	*	*	*	*	*	*	*col	*	*
2BB-/	.	.	.	.	.	.	0F	.	.	0d	.	-tum
2C/	.	.	.	.	.	.	.	.	.	.	.	.
=138-	=138-	=138-	=138-	=138-	=138-	=138-	=138-	=138-	=138-	=138-	=138-	=138-
*col	*	*	*	*	*	*	*	*	*	*	*	*
1D	.	.	-tu(m)	1A	.	.	.	.	.	.	.	.
!	!	!	!	!	!	!	!LO:TX:t=P:problem:kreska pseudotaktowa	!	!	!	!	!
0C	.	.	.	0c	ti-	te-	0E	.	.	0g	.	.
*	*	*	*	*Xcol	*	*	*	*	*	*Xcol	*	*
!	!	!	!	!	!	!	!LO:LB:g=original	!	!	!	!	!
=139-	=139-	=139-	=139-	=139-	=139-	=139-	=139-	=139-	=139-	=139-	=139-	=139-
*	*	*	*	*lig	*	*	*	*	*	*	*	*
1AA	ti-	.	te-	1c	-me-	.	1A	.	.	0f	.	te-
1BB-	-me-	.	-re-	1d	.	.	0G	-me-	-ne-	.	.	.
*	*	*	*	*Xlig	*	*	*Xcol	*	*	*	*	*
1C	-as	.	-as	1c	.	-ne-	.	.	.	1e	.	.
*Xcol	*	*	*	*	*	*	*	*	*	*	*	*
=140-	=140-	=140-	=140-	=140-	=140-	=140-	=140-	=140-	=140-	=140-	=140-	=140-
00.FFl;; 00.F	.	.	.	[0.cl;;	-as	-as	[0.Fl;<	-as	-as	0f	.	.
.	.	.	.	.	.	.	.	.	.	2e\	ti-	.
.	.	.	.	.	.	.	.	.	.	2d\	-me-	-ne-
=141-	=141-	=141-	=141-	=141-	=141-	=141-	=141-	=141-	=141-	=141-	=141-	=141-
.	.	.	.	0.c]	.	.	0.F]	.	.	0.cl;;	-as.	-as
=142||	=142||	=142||	=142||	=142||	=142||	=142||	=142||	=142||	=142||	=142||	=142||	=142||
*M2/1	*	*	*	*M2/1	*	*	*M2/1	*	*	*M2/1	*	*
*met(C)	*	*	*	*met(C)	*	*	*met(C)	*	*	*met(C)	*	*
!	!	!	!	!LO:TX:b:t=P:problem:Inicjał "A" przed metrum	!	!	!LO:TX:b:t=P:problem:Inicjał "A" przed metrum	!	!	!	!	!
00r	.	.	.	0A	Au-	Con-	0A	Au-	Con-	0r	.	.
=143-	=143-	=143-	=143-	=143-	=143-	=143-	=143-	=143-	=143-	=143-	=143-	=143-
!	!	!	!	!	!	!	!	!	!	!LO:TX:b:t=P:problem:Inicjał "A" przed metrum	!	!
.	.	.	.	1G	-dit	-ſi-	1G	-dit	-ſi-	0e	Au-	Con-
!	!	!	!	!LO:LB:g=original	!	!	!	!	!	!	!	!
.	.	.	.	1A	et	-li-	1A	et	-li-	.	.	.
=144-	=144-	=144-	=144-	=144-	=144-	=144-	=144-	=144-	=144-	=144-	=144-	=144-
0r	.	.	.	1B-	Su-	-a-	1B-	ſu-	-a-	1d	-dit	-ſi-
.	.	.	.	1A	-ſci-	-ri-	1A	-ſci-	-ri-	0e	et	-li-
=145-	=145-	=145-	=145-	=145-	=145-	=145-	=145-	=145-	=145-	=145-	=145-	=145-
!LO:TX:b:t=P:problem:Inicjał "A" przed metrum	!	!	!	!	!	!	!	!	!	!	!	!
1E	Au-	.	Con-	1G,<	-pit	-u(m)	1G	-pit	-um	.	.	.
0D	-dit	.	-ſi-	1A	pu-	hu-	1A	pu-	hu-	0f	ſu-	-a-
=146-	=146-	=146-	=146-	=146-	=146-	=146-	=146-	=146-	=146-	=146-	=146-	=146-
.	.	.	.	1F	-el-	-ma-	1F	-el-	-ma-	.	.	.
1E	et	.	-li-	1G	-la	-ni	1G	-la	-ni	1e	-ſci-	-ri-
=147-	=147-	=147-	=147-	=147-	=147-	=147-	=147-	=147-	=147-	=147-	=147-	=147-
1F	ſu-	.	-a-	2F/	nun-	ge-	2F/	nun-	ge-	1d	-pit	-um
.	.	.	.	2A/	.	.	2A/	.	.	.	.	.
0E	-ſci-	.	-ru(m)	2G/	.	.	2G/	.	.	1e	pu-	hu-
.	.	.	.	2.C/	.	.	2.C/	.	.	.	.	.
=148-	=148-	=148-	=148-	=148-	=148-	=148-	=148-	=148-	=148-	=148-	=148-	=148-
.	.	.	.	.	.	.	.	.	.	1c	-el-	-ma-
.	.	.	.	4D/	.	.	4D/	.	.	.	.	.
.	.	.	.	2E/	.	.	2E/	.	.	.	.	.
!	!	!	!	!	!	!	!	!	!	!LO:LB:g=original	!	!
1D	-pit	.	hu-	2F/	.	.	2F/	.	.	2d\	-la	-ni
.	.	.	.	2A/	.	.	2A/	.	.	2f\	nun-	ge-
=149-	=149-	=149-	=149-	=149-	=149-	=149-	=149-	=149-	=149-	=149-	=149-	=149-
1E	pu-	.	-ma-	2G/	.	.	2G/	.	.	4e\	.	.
.	.	.	.	.	.	.	.	.	.	4d\	.	.
.	.	.	.	2.c\	.	.	2.c\	.	.	4c\	.	.
.	.	.	.	.	.	.	.	.	.	4B-\	.	.
1C	-el-	.	-ni	.	.	.	.	.	.	4A/	.	.
.	.	.	.	4B-\	.	.	4B-\	.	.	4G/	.	.
!	!	!	!	!	!	!	!LO:LB:g=original	!	!	!	!	!
.	.	.	.	4A\	.	.	4A/	.	.	2.c/	.	.
.	.	.	.	4G\	.	.	4G/	.	.	.	.	.
=150-	=150-	=150-	=150-	=150-	=150-	=150-	=150-	=150-	=150-	=150-	=150-	=150-
1D	-la	.	ge-	2F/	.	.	2F/	.	.	.	.	.
.	.	.	.	.	.	.	.	.	.	8B-/L	.	.
.	.	.	.	.	.	.	.	.	.	8A/J	.	.
.	.	.	.	1f	.	.	1f	.	.	2B-/	-ti-	.
1C	nun-	.	.	.	.	.	.	.	.	1c	-u(m)	.
.	.	.	.	2e\	-ti-	-ne-	2e\	.	.	.	.	.
=151-	=151-	=151-	=151-	=151-	=151-	=151-	=151-	=151-	=151-	=151-	=151-	=151-
2BB-/	.	.	.	2f\	-u(m)	-ris	2.f\	.	.	1F	nun-	.
2AA/	.	.	.	2rd	.	.	.	.	.	.	.	.
.	.	.	.	.	.	.	4e\	.	.	.	.	.
2BB-/	.	.	.	1re	.	.	2d\	.	.	2.G/	.	.
2C/	.	.	.	.	.	.	4c\	.	.	.	.	.
.	.	.	.	.	.	.	4B-\	.	.	4F/	.	.
!LO:LB:g=original	!	!	!	!	!	!	!	!	!	!	!	!
=152-	=152-	=152-	=152-	=152-	=152-	=152-	=152-	=152-	=152-	=152-	=152-	=152-
1D	-ti-	.	-ne-	1A	Cre-	et	2A/	.	.	4D/	.	.
.	.	.	.	.	.	.	.	.	.	4E/	.	.
.	.	.	.	.	.	.	2F/	.	.	1F	.	.
1C	-u(m)	.	-ris	1c	-dit	de-	1G	-ti-	-ne-	.	.	.
.	.	.	.	.	.	.	.	.	.	2E/	.	.
=153-	=153-	=153-	=153-	=153-	=153-	=153-	=153-	=153-	=153-	=153-	=153-	=153-
0r	.	.	.	1d	et	-u(m)	1A	-u(m)	-ris	1F	.	.
.	.	.	.	2c/	con-	for-	0rG	.	.	2A/	.	.
.	.	.	.	2B-\	-ci-	-ti-	.	.	.	2.G/	.	.
=154-	=154-	=154-	=154-	=154-	=154-	=154-	=154-	=154-	=154-	=154-	=154-	=154-
!	!	!	!	!LO:TX:t=P:problem:brzeg karty urwany, dźwięk prawdopodobny	!	!	!	!	!	!	!	!
1AA	cre-	.	et	1A	-p(i)-	-u(m),	.	.	.	.	.	.
.	.	.	.	.	.	.	.	.	.	4F/	.	.
.	.	.	.	.	.	.	.	.	.	1f	.	.
!	!	!	!	!LO:PB:g=original	!	!	!	!	!	!	!	!
1C	-dit	.	De-	2G/	-et	et	1rA	.	.	.	.	.
!	!	!	!	!	!	!	!	!	!	!LO:TX:t=P:problem:kreska pseudotaktowa słabo widoczna	!	!
.	.	.	.	1A\	pa-	pa-	.	.	.	2e\	-ti-	-ne-
=155-	=155-	=155-	=155-	=155-	=155-	=155-	=155-	=155-	=155-	=155-	=155-	=155-
1D	et	.	-u(m)	.	.	.	1A	cre-	et	1f	-u(m)	-ris
.	.	.	.	2F/	.	.	.	.	.	.	.	.
1C	con-	.	for-	2G/	.	.	1c	-dit	De-	1c	cre-	et
.	.	.	.	2A/	.	.	.	.	.	.	.	.
=156-	=156-	=156-	=156-	=156-	=156-	=156-	=156-	=156-	=156-	=156-	=156-	=156-
1BB-	-ci-	.	-ti-	2B-/	.	.	1d	et	-um	2d\	-dit	De-
.	.	.	.	1G	.	.	.	.	.	2d\	et	-u(m)
!	!	!	!	!	!	!	!	!	!	!LO:TX:a:t=P:problem:fragment z całymi nutami zamienionymi na półnuty, inne półnuty dopisane	!	!
1AA	-pit	.	-um	.	.	.	1c	con-	For-	2c/	con-	For-
!	!	!	!	!	!	!	!	!	!	!LO:TX:t=P:problem:nuta mniejsza, dopisana później?	!	!
.	.	.	.	2F/	.	.	.	.	.	2A/	.	.
=157-	=157-	=157-	=157-	=157-	=157-	=157-	=157-	=157-	=157-	=157-	=157-	=157-
1GG	et	.	et	4G/	.	.	1B-	-ci-	-ti-	2B-/	-ci-	-ti-
.	.	.	.	4F/	.	.	.	.	.	.	.	.
!	!	!	!	!	!	!	!	!	!	!LO:TX:t=P:problem:nuta mniejsza, dopisana później?	!	!
.	.	.	.	4E/	.	.	.	.	.	2G/	.	.
.	.	.	.	4D/	.	.	.	.	.	.	.	.
2AA/	pa-	.	Pa-	2C/	-rit	-trem	1A	-pit	-u(m)	2A/	-pit	-u(m)
!	!	!	!	!	!	!	!	!	!	!LO:TX:t=P:problem:nuta mniejsza, dopisana później?	!	!
2FF/	.	.	.	1F/	fi-	po-	.	.	.	2F/	.	.
=158-	=158-	=158-	=158-	=158-	=158-	=158-	=158-	=158-	=158-	=158-	=158-	=158-
1GG	.	.	.	.	.	.	1G	et	et	1G	et	et
.	.	.	.	2E/	-li-	-ſte-	.	.	.	.	.	.
!	!	!	!	!	!	!	!	!	!	!LO:LB:g=original	!	!
2FF/	-rit	.	-trem	1F	-u(m)	-ris	1A	pa-	Pa-	2A/	pa-	Pa-
!	!	!	!	!	!	!	!	!	!	!LO:TX:t=P:problem:nuta mniejsza, dopisana później?	!	!
1F\	fi-	.	Po-	.	.	.	.	.	.	2F/	.	.
=159-	=159-	=159-	=159-	=159-	=159-	=159-	=159-	=159-	=159-	=159-	=159-	=159-
.	.	.	.	2.C/	et	et	1G	-rit	-trem	2G/	-rit	-trem
!	!	!	!	!	!	!	!	!	!	!LO:TX:t=P:problem:nuta mniejsza, dopisana później?	!	!
2E\	.	.	.	.	.	.	.	.	.	2E/	.	.
.	.	.	.	4c\	.	.	.	.	.	.	.	.
1D	.	.	.	2.A/	pa-	pa-	2.F/	Fi-	Poſ-	2.F/	Fi-	po-
.	.	.	.	4B-\	.	.	4G/	.	.	4G/	.	.
=160-	=160-	=160-	=160-	=160-	=160-	=160-	=160-	=160-	=160-	=160-	=160-	=160-
2C/	-li-	.	-ſte-	2c\	.	.	2A/	.	.	2A/	.	.
!	!	!	!	!	!	!	!LO:SIC:v:t=custos a	!	!	!	!	!
1BB-	-u(m)	.	-ris	1d	.	.	1B-	.	.	2B-/	.	.
!	!	!	!	!	!	!	!	!	!	!LO:TX:t=P:problem:nuta mniejsza, dopisana później?	!	!
.	.	.	.	.	.	.	.	.	.	2G/	.	.
!	!	!	!	!	!	!	!LO:LB:g=original	!	!	!	!	!
2C/	ſed	.	in	2c\	.	.	1A\	.	.	2A/	.	.
=161-	=161-	=161-	=161-	=161-	=161-	=161-	=161-	=161-	=161-	=161-	=161-	=161-
!	!	!	!	!	!	!	!	!	!	!LO:TX:t=P:problem:nuta mniejsza, dopisana później?	!	!
2D/	.	.	.	1B-	.	.	.	.	.	2F/	.	.
2E\	.	.	.	.	.	.	2G/	.	.	2G/	.	.
2.F\	ad-	.	fi-	2.A/	.	.	2.A/	.	.	2.A/	.	.
4E\	.	.	.	4G/	-rit	-tre(m)	4G/	.	.	4G/	.	.
=162-	=162-	=162-	=162-	=162-	=162-	=162-	=162-	=162-	=162-	=162-	=162-	=162-
4D\	.	.	.	2A/	Fi-	po-	4F/	.	.	4F/	.	.
4C\	.	.	.	.	.	.	4E/	.	.	4E/	.	.
2.D/	.	.	.	1B-	.	-ſte-	1F	.	.	1F	.	.
4C/	.	.	.	.	.	.	.	.	.	.	.	.
4BB-/	.	.	.	1A\	-li-	-ris	1E/	.	.	1E/	-li-	-ſte-
4AA/	.	.	.	.	.	.	.	.	.	.	.	.
=163-	=163-	=163-	=163-	=163-	=163-	=163-	=163-	=163-	=163-	=163-	=163-	=163-
1BB-	.	.	.	.	.	.	.	.	.	.	.	.
.	.	.	.	2G/	-u(m)	.	2D/	-li-	-te-	2D/	-um	-ris
2AA/	.	.	-de	2A/	.	.	2E/	-u(m)	-ris	2.c\	ſed	in
2.A\	(-mi-)	.	ſta-	2.c\	ſed	in	2C/	.	.	.	.	.
.	.	.	.	.	.	.	.	.	.	4d\	.	.
=164-	=164-	=164-	=164-	=164-	=164-	=164-	=164-	=164-	=164-	=164-	=164-	=164-
*	*	*	*	*	*	*	*lig	*	*	*	*	*
.	.	.	.	.	.	.	1c	ſed	in	2e\	ad-	Pa-
4G\	.	.	.	4B-\	.	.	.	.	.	.	.	.
!LO:LB:g=original	!	!	!	!	!	!	!	!	!	!	!	!
1F	.	.	.	1A	.	.	.	.	.	1f	-mi-	-ce
.	.	.	.	.	.	.	1d	.	.	.	.	.
!	!	!	!	!LO:LB:g=original	!	!	!	!	!	!	!	!
2D/	.	.	.	2F/	ad-	fi-	.	.	.	2f\	-ra-	ſta-
*	*	*	*	*	*	*	*Xlig	*	*	*	*	*
=165-	=165-	=165-	=165-	=165-	=165-	=165-	=165-	=165-	=165-	=165-	=165-	=165-
2E\	.	.	.	2G/	.	.	1c	.	.	2e\	.	.
2.F\	.	.	.	2.A/	.	.	.	.	.	2c/	.	.
.	.	.	.	.	.	.	1F	ad-	fi-	2.f\	.	.
4E\	.	.	.	4G/	.	.	.	.	.	.	.	.
4D\	.	.	.	2A/	.	.	.	.	.	.	.	.
4C\	.	.	.	.	.	.	.	.	.	4e\	.	.
=166-	=166-	=166-	=166-	=166-	=166-	=166-	=166-	=166-	=166-	=166-	=166-	=166-
*	*	*	*	*	*	*	*lig	*	*	*	*	*
2BB-/	.	.	.	2B-/	-mi-	-de	1G	.	-de	2d\	.	.
2.C/	.	.	.	1G	-ra-	ſta-	.	.	.	2e\	.	.
.	.	.	.	.	.	.	1A	.	.	2c/	.	.
4BB-/	.	.	.	.	.	.	.	.	.	.	.	.
2AA/	.	.	.	2F/	-bi-	-bi-	.	.	.	2.f\	.	.
*	*	*	*	*	*	*	*Xlig	*	*	*	*	*
=167-	=167-	=167-	=167-	=167-	=167-	=167-	=167-	=167-	=167-	=167-	=167-	=167-
1GG	.	.	.	1G	-lem	-lem	1B-	-mi-	ſta-	.	.	.
.	.	.	.	.	.	.	.	.	.	4d\	.	.
.	.	.	.	.	.	.	.	.	.	2e\	.	.
2FF/	.	.	.	2r	.	.	2A/	.	.	2c/	.	.
2.C/	.	.	.	1c\	ſed	in	2G/	-ra-	.	2.g\	.	.
=168-	=168-	=168-	=168-	=168-	=168-	=168-	=168-	=168-	=168-	=168-	=168-	=168-
.	.	.	.	.	.	.	2A/	.	.	.	.	.
4AA/	.	.	.	.	.	.	.	.	.	4f\	.	.
!	!	!	!	!	!	!	!	!	!	!LO:LB:g=original	!	!
2D/	.	.	.	2B-\	.	fi-	2F/	.	.	1f	.	.
1C	ra-	.	.	1c	ad-	-de	1G	-bi-	-bi-	.	.	.
.	.	.	.	.	.	.	.	.	.	2e\	.	.
=169-	=169-	=169-	=169-	=169-	=169-	=169-	=169-	=169-	=169-	=169-	=169-	=169-
*lig	*	*	*	*	*	*	*	*	*	*	*	*
1FF	-bi-	.	-bi-	2c\	-mi-	ſta-	[0Fl;;	-lem	-lem	1.f	-bi-	-bi-
.	.	.	.	1d	-ra-	.	.	.	.	.	.	.
1BB-	.	.	.	.	.	.	.	.	.	.	.	.
.	.	.	.	4c\	-bi-	-bi-	.	.	.	4e\	.	.
.	.	.	.	4B-\	.	.	.	.	.	4d\	.	.
*Xlig	*	*	*	*	*	*	*	*	*	*	*	*
=170-	=170-	=170-	=170-	=170-	=170-	=170-	=170-	=170-	=170-	=170-	=170-	=170-
0FF;; 0F	-lem	.	-lem	0Al;<	-lem	-lem	0F]	.	.	0cl;;	-lem	-lem
=171||	=171||	=171||	=171||	=171||	=171||	=171||	=171||	=171||	=171||	=171||	=171||	=171||
*M2/1	*	*	*	*M2/1	*	*	*M2/1	*	*	*M2/1	*	*
*met(C)	*	*	*	*met(C)	*	*	*met(C)	*	*	*met(C)	*	*
!	!	!	!	!	!	!	!	!	!	!LO:TX:b:t=P:problem:Inicjał "Q" przed metrum	!	!
00r	.	.	.	0rA	.	.	0r	.	.	1e	Qui	.
.	.	.	.	.	.	.	.	.	.	1d	no-	.
=172-	=172-	=172-	=172-	=172-	=172-	=172-	=172-	=172-	=172-	=172-	=172-	=172-
!	!	!	!	!LO:TX:b:t=P:problem:Inicjał "Q" przed metrum	!	!	!LO:TX:b:t=P:problem:Inicjał "Q" przed metrum	!	!	!	!	!
.	.	.	.	1A	Qui	.	1A	Qui	.	2e\	-bis	.
.	.	.	.	.	.	.	.	.	.	2f\	tri-	.
!	!	!	!	!	!	!	!LO:PB:g=original	!	!	!	!	!
.	.	.	.	1G	no-	.	1G	no-	.	4g\	.	.
.	.	.	.	.	.	.	.	.	.	4f\	.	.
.	.	.	.	.	.	.	.	.	.	4e\	.	.
.	.	.	.	.	.	.	.	.	.	4d\	.	.
=173-	=173-	=173-	=173-	=173-	=173-	=173-	=173-	=173-	=173-	=173-	=173-	=173-
!LO:TX:b:t=P:problem:Inicjał "Q" przed metrum	!	!	!	!	!	!	!	!	!	!	!	!
1AA	Qui	.	.	1A	-bis	.	1A	-bis	.	2c\	.	.
.	.	.	.	.	.	.	.	.	.	2.f\	.	.
1GG	no-	.	.	1B-	tri-	.	1rA	.	.	.	.	.
.	.	.	.	.	.	.	.	.	.	8e\L	.	.
.	.	.	.	.	.	.	.	.	.	8d\J	.	.
.	.	.	.	.	.	.	.	.	.	2e\	.	.
=174-	=174-	=174-	=174-	=174-	=174-	=174-	=174-	=174-	=174-	=174-	=174-	=174-
*	*	*	*	*	*	*	*	*	*	*lig	*	*
1AA	-bis	.	.	4A/	.	.	1A	qui	.	1c	-bu-	.
.	.	.	.	4G/	.	.	.	.	.	.	.	.
.	.	.	.	4F/	.	.	.	.	.	.	.	.
.	.	.	.	4E/	.	.	.	.	.	.	.	.
1BB-	tri-	.	.	2D/	.	.	1G	no-	.	1d	.	.
.	.	.	.	1G/	.	.	.	.	.	.	.	.
*	*	*	*	*	*	*	*	*	*	*Xlig	*	*
=175-	=175-	=175-	=175-	=175-	=175-	=175-	=175-	=175-	=175-	=175-	=175-	=175-
1AA	-bu-	.	.	.	.	.	1A	-bis	.	1c	-at	.
.	.	.	.	2F/	-bu-	.	.	.	.	.	.	.
!	!	!	!	!LO:LB:g=original	!	!	!	!	!	!	!	!
1GG	-at	.	.	4G/	-at	.	1B-	tri-	.	2r	.	.
.	.	.	.	4F/	.	.	.	.	.	.	.	.
.	.	.	.	4E/	.	.	.	.	.	2g\	pec-	.
.	.	.	.	4D/	.	.	.	.	.	.	.	.
=176-	=176-	=176-	=176-	=176-	=176-	=176-	=176-	=176-	=176-	=176-	=176-	=176-
2AA/	.	.	.	2C/	.	.	1A	-bu-	.	2e\	-ca-	.
!	!	!	!	!	!	!	!	!	!	!LO:SIC:v:t=custos d	!	!
2FF/	.	.	.	1F	pec-	.	.	.	.	2f\	-ti	.
!	!	!	!	!	!	!	!	!	!	!LO:PB:g=original	!	!
1GG	.	.	.	.	.	.	1G	-at	.	2d\	ue-	.
.	.	.	.	2E/	.	.	.	.	.	2e\	.	.
!LO:LB:g=original	!	!	!	!	!	!	!	!	!	!	!	!
=177-	=177-	=177-	=177-	=177-	=177-	=177-	=177-	=177-	=177-	=177-	=177-	=177-
2FF/	.	.	.	2.F/	-ca-	.	1A	pec-	.	2d\	.	.
*	*	*	*	*	*	*	*	*	*	*lig	*	*
2.F\	pec-	.	.	.	.	.	.	.	.	1c	.	.
.	.	.	.	4G/	.	.	.	.	.	.	.	.
.	.	.	.	2A\	.	.	1F	-ca-	.	.	.	.
4E\	.	.	.	.	.	.	.	.	.	.	.	.
2D/	.	.	.	2B-\	.	.	.	.	.	1f\	.	.
*	*	*	*	*	*	*	*	*	*	*Xlig	*	*
=178-	=178-	=178-	=178-	=178-	=178-	=178-	=178-	=178-	=178-	=178-	=178-	=178-
1C	-ca-	.	.	1c	.	.	1G	-ti	.	.	.	.
.	.	.	.	.	.	.	.	.	.	2e\	-ni-	.
2AA/	.	.	.	2c\	-ti	.	2.F/	ue-	.	1f	-a(m)	.
1BB-/	-ti	.	.	1d\	Ve-	.	.	.	.	.	.	.
.	.	.	.	.	.	.	4E/	.	.	.	.	.
=179-	=179-	=179-	=179-	=179-	=179-	=179-	=179-	=179-	=179-	=179-	=179-	=179-
.	.	.	.	.	.	.	4D/	.	.	0r	.	.
.	.	.	.	.	.	.	4C/	.	.	.	.	.
4AA/	.	.	.	4c\	.	.	1G	.	.	.	.	.
4GG/	.	.	.	4B-\	.	.	.	.	.	.	.	.
2AA/	ve-	.	.	2c\	.	.	.	.	.	.	.	.
2BB-/	.	.	.	2d\	.	.	1F/	.	.	.	.	.
=180-	=180-	=180-	=180-	=180-	=180-	=180-	=180-	=180-	=180-	=180-	=180-	=180-
1GG	-ni-	.	.	1B-	-ni-	.	.	.	.	1r	.	.
.	.	.	.	.	.	.	2E/	-ni-	.	.	.	.
1FF	-am	.	.	2A/	-am	.	1F	-am	.	1c	re-	.
.	.	.	.	2f\	re-	.	.	.	.	.	.	.
=181-	=181-	=181-	=181-	=181-	=181-	=181-	=181-	=181-	=181-	=181-	=181-	=181-
00r	.	.	.	2.e\	-a-	.	0rA	.	.	1g	-a-	.
.	.	.	.	4d\	.	.	.	.	.	.	.	.
.	.	.	.	2c\	.	.	.	.	.	1g	-t(us)	.
.	.	.	.	2B-\	.	.	.	.	.	.	.	.
=182-	=182-	=182-	=182-	=182-	=182-	=182-	=182-	=182-	=182-	=182-	=182-	=182-
.	.	.	.	2A/	.	.	0F	re-	.	1a	de-	.
.	.	.	.	1c	.	.	.	.	.	.	.	.
.	.	.	.	.	.	.	.	.	.	1f	-le-	.
.	.	.	.	4B-\	.	.	.	.	.	.	.	.
.	.	.	.	4A\	-t(us)	.	.	.	.	.	.	.
=183-	=183-	=183-	=183-	=183-	=183-	=183-	=183-	=183-	=183-	=183-	=183-	=183-
0C	re-	.	.	1.G	de-	.	1c	-a-	.	0g	-at	.
.	.	.	.	.	.	.	1c	-tus	.	.	.	.
.	.	.	.	1g\	-le-	.	.	.	.	.	.	.
=184-	=184-	=184-	=184-	=184-	=184-	=184-	=184-	=184-	=184-	=184-	=184-	=184-
!	!	!	!	!	!	!	!LO:TX:t=P:problem:karta urwana	!	!	!	!	!
!	!	!	!	!	!	!	!LO:TX:b:t=deleat	!	!	!	!	!
1G	-a-	.	.	.	.	.	1ryy	.	.	0r	.	.
.	.	.	.	4f\	.	.	.	.	.	.	.	.
.	.	.	.	4e\	.	.	.	.	.	.	.	.
1G	-tus	.	.	1d	-at	.	1ryy	.	.	.	.	.
=185-	=185-	=185-	=185-	=185-	=185-	=185-	=185-	=185-	=185-	=185-	=185-	=185-
1A	de-	.	.	2rd	.	.	1ryy	.	.	1.c	et	.
!	!	!	!	!LO:LB:g=original	!	!	!	!	!	!	!	!
.	.	.	.	1c	de-	.	.	.	.	.	.	.
!	!	!	!	!	!	!	!LO:LB:g=original	!	!	!	!	!
1F	-le-	.	.	.	.	.	0r	.	.	.	.	.
.	.	.	.	4B-\	.	.	.	.	.	1.d\	do-	.
.	.	.	.	4A\	.	.	.	.	.	.	.	.
=186-	=186-	=186-	=186-	=186-	=186-	=186-	=186-	=186-	=186-	=186-	=186-	=186-
1G	-at	.	.	4B-\	.	.	.	.	.	.	.	.
.	.	.	.	4A\	.	.	.	.	.	.	.	.
.	.	.	.	4G/	.	.	.	.	.	.	.	.
.	.	.	.	4F/	.	.	.	.	.	.	.	.
1C	et	.	.	1G	.	.	1r	.	.	1e	-net	.
=187-	=187-	=187-	=187-	=187-	=187-	=187-	=187-	=187-	=187-	=187-	=187-	=187-
1D	do-	.	.	1F	-le-	.	1F	et	.	1f	.	.
(<1E	-net	.	.	1C	-at	.	1G	do-	.	2rf	.	.
.	.	.	.	.	.	.	.	.	.	1g\	Pa-	.
=188-	=188-	=188-	=188-	=188-	=188-	=188-	=188-	=188-	=188-	=188-	=188-	=188-
*	*	*	*	*	*	*	*lig	*	*	*	*	*
1F)	.	.	.	2r	.	.	1A	-net	.	.	.	.
.	.	.	.	1c	et	.	.	.	.	1f	.	.
1G	pa-	.	.	.	.	.	1B-	.	.	.	.	.
.	.	.	.	2B-\	do-	.	.	.	.	2e\	.	.
*	*	*	*	*	*	*	*Xlig	*	*	*	*	*
=189-	=189-	=189-	=189-	=189-	=189-	=189-	=189-	=189-	=189-	=189-	=189-	=189-
2F\	.	.	.	2A/	-net	.	1c	Pa-	.	2f\	.	.
2E\	.	.	.	2G/	.	.	.	.	.	2c/	.	.
1D	-tri-	.	.	1d	pa-	.	2B-/	.	.	1f	.	.
.	.	.	.	.	.	.	1A\	.	.	.	.	.
=190-	=190-	=190-	=190-	=190-	=190-	=190-	=190-	=190-	=190-	=190-	=190-	=190-
1E	-a(m)	.	.	2c\	.	.	.	.	.	4e\	.	.
!	!	!	!	!	!	!	!	!	!	!LO:SIC:v:t=custos g	!	!
.	.	.	.	.	.	.	.	.	.	4d\	.	.
!	!	!	!	!	!	!	!	!	!	!LO:LB:g=original	!	!
.	.	.	.	2B-\	.	.	2G/	-tri-	.	1g	.	.
1r	.	.	.	1A	.	.	1A	-a(m)	.	.	.	.
.	.	.	.	.	.	.	.	.	.	2f\	.	.
!LO:LB:g=original	!	!	!	!	!	!	!	!	!	!	!	!
=191-	=191-	=191-	=191-	=191-	=191-	=191-	=191-	=191-	=191-	=191-	=191-	=191-
*lig	*	*	*	*	*	*	*	*	*	*	*	*
1G	in	.	.	2G/	.	.	1r	.	.	1g	.	.
.	.	.	.	1d	.	.	.	.	.	.	.	.
*	*	*	*	*	*	*	*lig	*	*	*	*	*
1A	.	.	.	.	.	.	1c	in	.	2e\	.	.
.	.	.	.	1c\	.	.	.	.	.	2f\	.	.
*Xlig	*	*	*	*	*	*	*	*	*	*	*	*
=192-	=192-	=192-	=192-	=192-	=192-	=192-	=192-	=192-	=192-	=192-	=192-	=192-
1G	.	.	.	.	.	.	1d	.	.	2d\	.	.
.	.	.	.	2B-\	-tri-	.	.	.	.	4g\	.	.
.	.	.	.	.	.	.	.	.	.	4f\	.	.
*	*	*	*	*	*	*	*Xlig	*	*	*	*	*
1C	ar-	.	.	1c	-a(m)	.	1c	.	.	4e\	.	.
.	.	.	.	.	.	.	.	.	.	4d\	.	.
.	.	.	.	.	.	.	.	.	.	1c\	.	.
=193-	=193-	=193-	=193-	=193-	=193-	=193-	=193-	=193-	=193-	=193-	=193-	=193-
1D	-ce	.	.	2A/	in	.	1F	ar-	.	.	.	.
.	.	.	.	2B-/	ar-	.	.	.	.	2B-/	-tri-	.
2C/	.	.	.	2G/	-ce	.	2G/	-ce	.	1c	-a(m)	.
2AA/	.	.	.	2c\	in	.	1F/	.	.	.	.	.
=194-	=194-	=194-	=194-	=194-	=194-	=194-	=194-	=194-	=194-	=194-	=194-	=194-
2BB-/	.	.	.	2B-\	ar-	.	.	.	.	2r	.	.
2C/	.	.	.	2G/	.	.	1E	.	.	2.c/	in	.
2AA/	.	.	.	2A/	.	.	.	.	.	.	.	.
.	.	.	.	.	.	.	.	.	.	8B-/L	.	.
.	.	.	.	.	.	.	.	.	.	8c/J	.	.
2BB-/	.	.	.	2F/	.	.	2.D/	ſy-	.	2d\	ar-	.
=195-	=195-	=195-	=195-	=195-	=195-	=195-	=195-	=195-	=195-	=195-	=195-	=195-
2GG/	.	.	.	2G/	.	.	.	.	.	2B-/	-ce	.
.	.	.	.	.	.	.	4E/	.	.	.	.	.
*lig	*	*	*	*	*	*	*	*	*	*	*	*
1FF	ſy-	.	.	2C/	.	.	4F/	.	.	1A	.	.
.	.	.	.	.	.	.	4G/	.	.	.	.	.
!	!	!	!	!LO:LB:g=original	!	!	!	!	!	!	!	!
.	.	.	.	2F/	.	.	2A\	.	.	.	.	.
1GG/	.	.	.	2D/	.	.	2.B-\	.	.	2.G/	.	.
*Xlig	*	*	*	*	*	*	*	*	*	*	*	*
=196-	=196-	=196-	=196-	=196-	=196-	=196-	=196-	=196-	=196-	=196-	=196-	=196-
.	.	.	.	2d\	.	.	.	.	.	.	.	.
.	.	.	.	.	.	.	4A\	.	.	4F/	.	.
2AA/	.	.	.	2c\	.	.	4G/	.	.	2.f\	ſy-	.
.	.	.	.	.	.	.	4F/	.	.	.	.	.
2BB-/	-de-	.	.	2B-\	.	.	1G	-de-	.	.	.	.
.	.	.	.	.	.	.	.	.	.	4d\	.	.
2C/	-ru(m)	.	.	2G/	.	.	.	.	.	2e\	.	.
=197-	=197-	=197-	=197-	=197-	=197-	=197-	=197-	=197-	=197-	=197-	=197-	=197-
!LO:TX:t=P:problem:pośrodku jeszcze trzecia fermata	!	!	!	!	!	!	!	!	!	!	!	!
0FFl;;; 0F	.	.	.	2.A/	-ſy-	.	0Fl;;	-rum	.	2d\	.	.
.	.	.	.	.	.	.	.	.	.	4c/	-de-	.
.	.	.	.	4B-\	-de-	.	.	.	.	4B-/	.	.
.	.	.	.	1Al;<	-ru(m)	.	.	.	.	1cl;;	-ru(m)	.
!	!	!	!	!	!	!	!LO:LB:g=original	!	!	!	!	!
=198||	=198||	=198||	=198||	=198||	=198||	=198||	=198||	=198||	=198||	=198||	=198||	=198||
*M2/1	*	*	*	*M2/1	*	*	*M2/1	*	*	*	*	*
*met(C)	*	*	*	*met(C)	*	*	*met(C)	*	*	*	*	*
*	*	*	*	*	*	*	*lig	*	*	*	*	*
!	!	!	!	!LO:TX:b:t=P:problem:Inicjał "A" przed metrum	!	!	!LO:TX:b:t=P:problem:Inicjał "A" na początku pięciolinii	!	!	!	!	!
!	!	!	!	!	!	!	!	!	!	!LO:TX:b:t=P:problem:Inicjał "A" przed metrum	!	!
2.FF/	A-	.	.	2.c\	A-	.	1F	A-	.	0c	A-	.
4GG/	.	.	.	4B-\	.	.	.	.	.	.	.	.
4AA/	.	.	.	2A/	.	.	1E	.	.	.	.	.
4BB-/	.	.	.	.	.	.	.	.	.	.	.	.
1C/	.	.	.	2G/	.	.	.	.	.	.	.	.
*	*	*	*	*	*	*	*Xlig	*	*	*	*	*
=199-	=199-	=199-	=199-	=199-	=199-	=199-	=199-	=199-	=199-	=199-	=199-	=199-
.	.	.	.	2A/	.	.	1D	.	.	1d	-men	.
2BB-/	.	.	.	2B-/	.	.	.	.	.	.	.	.
!	!	!	!	!	!	!	!	!	!	!LO:LB:g=original	!	!
*	*	*	*	*lig	*	*	*	*	*	*	*	*
1C	.	.	.	1G	.	.	1E	.	.	2G/	a-	.
.	.	.	.	.	.	.	.	.	.	2.g\	.	.
=200-	=200-	=200-	=200-	=200-	=200-	=200-	=200-	=200-	=200-	=200-	=200-	=200-
1C	-men	.	.	1c	.	.	2C/	-men	.	.	.	.
.	.	.	.	.	.	.	.	.	.	4f\	.	.
.	.	.	.	.	.	.	1G	.	.	4e\	.	.
.	.	.	.	.	.	.	.	.	.	4d\	.	.
*	*	*	*	*Xlig	*	*	*	*	*	*	*	*
2r	.	.	.	2.A/	.	.	.	.	.	2e\	.	.
1D\	a-	.	.	.	.	.	2F/	a-	.	2f\	.	.
.	.	.	.	4B-\	.	.	.	.	.	.	.	.
=201-	=201-	=201-	=201-	=201-	=201-	=201-	=201-	=201-	=201-	=201-	=201-	=201-
.	.	.	.	1c	-men	.	2G/	.	.	1e	.	.
!LO:LB:g=original	!	!	!	!	!	!	!	!	!	!	!	!
2C/	.	.	.	.	.	.	2A/	.	.	.	.	.
2BB-/	.	.	.	2F/	a-	.	2.B-\	.	.	2.d\	.	.
4GG/	.	.	.	2.G/	.	.	.	.	.	.	.	.
4AA/	.	.	.	.	.	.	4A\	.	.	4c\	.	.
=202-	=202-	=202-	=202-	=202-	=202-	=202-	=202-	=202-	=202-	=202-	=202-	=202-
4BB-/	.	.	.	.	.	.	2G/	.	.	2B-/	.	.
4C/	.	.	.	4F/	.	.	.	.	.	.	.	.
2D\	.	.	.	2D/	.	.	2F/	.	.	2A/	.	.
2E\	.	.	.	2G/	.	.	2E/	.	.	2G/	.	.
2F\	.	.	.	2F/	.	.	2A/	.	.	1c\	.	.
=203-	=203-	=203-	=203-	=203-	=203-	=203-	=203-	=203-	=203-	=203-	=203-	=203-
2E\	.	.	.	2G/	.	.	2G/	.	.	.	.	.
!	!	!	!	!LO:LB:g=original	!	!	!	!	!	!	!	!
1D	.	.	.	2.A\	.	.	1F	.	.	2.d\	.	.
.	.	.	.	4B-\	.	.	.	.	.	4G/	.	.
4C/	.	.	.	1c\	.	.	4E/	.	.	1g\	.	.
4BB-/	.	.	.	.	.	.	4D/	.	.	.	.	.
=204-	=204-	=204-	=204-	=204-	=204-	=204-	=204-	=204-	=204-	=204-	=204-	=204-
2C/	.	.	.	.	.	.	2E/	.	.	.	.	.
2D/	.	.	.	2B-\	.	.	2F/	.	.	1f	.	.
1C	.	.	.	1c	-men	.	1G	.	.	.	.	.
.	.	.	.	.	.	.	.	.	.	2e\	.	.
=205-	=205-	=205-	=205-	=205-	=205-	=205-	=205-	=205-	=205-	=205-	=205-	=205-
!	!	!	!	!	!	!	!LO:TX:a:t=4	!	!	!	!	!
2.D/	.	.	.	1.A	A-	.	00F\	.	.	2f\	.	.
.	.	.	.	.	.	.	.	.	.	4e\	.	.
4E\	.	.	.	.	.	.	.	.	.	4d\	.	.
2F\	.	.	.	.	.	.	.	.	.	2c/	.	.
2.BB-/	.	.	.	2B-\	.	.	.	.	.	2d/	.	.
=206-	=206-	=206-	=206-	=206-	=206-	=206-	=206-	=206-	=206-	=206-	=206-	=206-
.	.	.	.	1c	.	.	.	.	.	1c	.	.
4GG/	.	.	.	.	.	.	.	.	.	.	.	.
2AA/	.	.	.	.	.	.	.	.	.	.	.	.
2BB-/	.	.	.	2F/	.	.	.	.	.	2B-/	.	.
2.D/	.	.	.	2.f\	.	.	.	.	.	2A/	.	.
=207-	=207-	=207-	=207-	=207-	=207-	=207-	=207-	=207-	=207-	=207-	=207-	=207-
.	.	.	.	.	.	.	[0Fl;;	-men	.	0d	.	.
4C/	.	.	.	4e\	.	.	.	.	.	.	.	.
1BB-	.	.	.	4d\	.	.	.	.	.	.	.	.
.	.	.	.	4c\	.	.	.	.	.	.	.	.
.	.	.	.	1B-	.	.	.	.	.	.	.	.
4AA/	.	.	.	.	.	.	.	.	.	.	.	.
4GG/	.	.	.	.	.	.	.	.	.	.	.	.
=208-	=208-	=208-	=208-	=208-	=208-	=208-	=208-	=208-	=208-	=208-	=208-	=208-
!LO:TX:t=P:problem:pośrodku jeszcze trzecia fermata	!	!	!	!	!	!	!	!	!	!	!	!
0FFl;;; 0F	-men.	.	.	0Al;;	-men	.	0F]	.	.	0cl;;	-men	.
==	==	==	==	==	==	==	==	==	==	==	==	==
*-	*-	*-	*-	*-	*-	*-	*-	*-	*-	*-	*-	*-
!!!system-decoration: [s1,s2,s3,s4]
!!!RDF**kern: < = below
!!!RDF**kern: l = terminal long
!!!ENC: Marta Lawrence
!!!END: 2021-04-02
!!!ENC: Mateusz Solarz
!!!END: 2021-03-29
